!!!!SEGMENT: pl-gd--ee-2628--007-019_stabile-annibale--sacrarum-modulationum-qaeramus-cum-pastoribus-a-8.krn
!!!cenid: 15xx:1108
!!!COM: Stabile, Annibale
!!!COM-rismID: pe30009662
!!!CDT: ~1535-1595/04
!!!CNT: Italian
!!!GTL: Sacrarum modulationum
!!!OTL: Qaeramus cum pastoribus a 8
!!!OMV: 019
!!!PDT: 1585
!!!AGN:
!!!SMS-siglum: PL-GD
!!!SMS-shelfmark: Ee 2628
!!!SMS-shelfwork: 007-019 G
!!!SMS-variant:
!!!SMS-altvar:
!!!NIFC-rismSourceID: 1001203361
!!!NIFC-rismChildID: 990060529
!!!NIFC-islandoraID: pl-gd:66139
!!!URL-pdf-islandora: https://repozytorium.nifc.pl/islandora/object/pl-gd%3A66139/datastream/PDF/view
!!!URL-scan: https://polish.musicsources.pl/pl/lokalizacje/galeria/klocki-introligatorskie/673 @EN{Scan on Polish Music Sources Website} @PL{Skany w portalu Dziedzictwo Muzyki Polskiej w otwartym dostępie}
!!!ONB-nifc: UWAGA: Cantus: s. 102-113, Tenore: s. 258-269, Basso: s. 414-425, Quinto: s. 736-747, Sextus: s. 624-632. Dla głosu Alto proszę skorzystać z https://pbc.gda.pl/dlibra/publication/87583/edition/79412/content, s. 25-48. Uwaga: utwory podzielone wg spisu treści dostępnych na końcu ksiąg – proszę sprawdzać sąsiednie tytuły i zwracać uwagę na liczbę głosów. Głosy Quinto i Sextus proszę umieszczać wg ambitusu (może się różnić w zależności od utworu).
!!!AIN: 2 alto 2 bass 2 soprn 2 tenor
!!!key: F:ion
**kern	**text	**kern	**text	**kern	**text	**kern	**text	**kern	**text	**kern	**text	**kern	**text	**kern	**text
*group2	*	*group2	*	*group2	*	*group2	*	*group1	*	*group1	*	*group1	*	*group1	*
*part8	*part8	*part7	*part7	*part6	*part6	*part5	*part5	*part4	*part4	*part3	*part3	*part2	*part2	*part1	*part1
*staff8	*staff8	*staff7	*staff7	*staff6	*staff6	*staff5	*staff5	*staff4	*staff4	*staff3	*staff3	*staff2	*staff2	*staff1	*staff1
*I"BASSVS	*	*I"TENOR	*	*I"ALTVS	*	*I"CANTVS	*	*I"BASSVS 2.	*	*I"TENOR 2.	*	*I"ALTVS 2.	*	*I"CANTVS 2.	*
*I'B	*	*I'T	*	*I'A	*	*I'S	*	*I'B 2	*	*I'T 2	*	*I'A 2	*	*I'S 2	*
*Ibass	*	*Itenor	*	*Ialto	*	*Isoprn	*	*Ibass	*	*Itenor	*	*Ialto	*	*Isoprn	*
*ICvox	*	*ICvox	*	*ICvox	*	*ICvox	*	*ICvox	*	*ICvox	*	*ICvox	*	*ICvox	*
*clefF3	*	*clefC3	*	*clefC2	*	*clefG2	*	*clefF3	*	*clefC3	*	*clefC2	*	*clefG2	*
*k[b-]	*	*k[b-]	*	*k[b-]	*	*k[b-]	*	*k[b-]	*	*k[b-]	*	*k[b-]	*	*k[b-]	*
*F:ion	*	*F:ion	*	*F:ion	*	*F:ion	*	*F:ion	*	*F:ion	*	*F:ion	*	*F:ion	*
*M2/1	*	*M2/1	*	*M2/1	*	*M2/1	*	*M2/1	*	*M2/1	*	*M2/1	*	*M2/1	*
*met(C|)	*	*met(C|)	*	*met(C|)	*	*met(C|)	*	*met(C|)	*	*met(C|)	*	*met(C|)	*	*met(C|)	*
=1-	=1-	=1-	=1-	=1-	=1-	=1-	=1-	=1-	=1-	=1-	=1-	=1-	=1-	=1-	=1-
!LO:TX:t=P:problem=przy kluczu BB- B-	!	!	!	!LO:TX:t=P:problem=przy kluczu B- b-	!	!	!	!LO:TX:t=P:problem=przy kluczu BB- B-	!	!	!	!LO:TX:t=P:problem=przy kluczu B- b-	!	!LO:TX:a:i:t=Primus Chorus. Oƈto vocum.	!
!LO:TX:a:i:t=Secundus Chorus. Oƈto vocum.	!	!LO:TX:a:i:t=Secundus Chorus. Oƈto vocum.	!	!LO:TX:a:i:t=Secundus Chorus. Oƈto vocum.	!	!LO:TX:a:i:t=Secundus Chorus. Oƈto vocum.	!	!LO:TX:a:i:t=Primus Chorus. Oƈto vocum.	!	!LO:TX:a:i:t=Primus Chorus. Oƈto vocum.	!	!LO:TX:a:i:t=Primus Chorus. Oƈto vocum.	!	!LO:TX:t=P:problem=głosy ułożone wg adnotacji Primus i Secundus Chorus	!
00r	.	00r	.	00r	.	00r	.	00r	.	00r	.	0f	QVae-	1r	.
.	.	.	.	.	.	.	.	.	.	.	.	.	.	0cc	QVae-
=2-	=2-	=2-	=2-	=2-	=2-	=2-	=2-	=2-	=2-	=2-	=2-	=2-	=2-	=2-	=2-
.	.	.	.	.	.	.	.	.	.	.	.	1f	-ra-	.	.
.	.	.	.	.	.	.	.	.	.	.	.	1c	-mus	1cc	-ra-
=3-	=3-	=3-	=3-	=3-	=3-	=3-	=3-	=3-	=3-	=3-	=3-	=3-	=3-	=3-	=3-
00r	.	00r	.	00r	.	00r	.	00r	.	00r	.	2r	.	1f	-mus
.	.	.	.	.	.	.	.	.	.	.	.	1f	cum	.	.
.	.	.	.	.	.	.	.	.	.	.	.	.	.	2r	.
.	.	.	.	.	.	.	.	.	.	.	.	2f\	paſ-	1cc\	cu(m)
=4-	=4-	=4-	=4-	=4-	=4-	=4-	=4-	=4-	=4-	=4-	=4-	=4-	=4-	=4-	=4-
.	.	.	.	.	.	.	.	.	.	.	.	1e	-to-	.	.
.	.	.	.	.	.	.	.	.	.	.	.	.	.	2cc\	paſ-
.	.	.	.	.	.	.	.	.	.	.	.	1d	-ri-	1b-	-to-
=5-	=5-	=5-	=5-	=5-	=5-	=5-	=5-	=5-	=5-	=5-	=5-	=5-	=5-	=5-	=5-
00r	.	00r	.	00r	.	00r	.	1r	.	00r	.	2c/	-bus	1a	-ri-
*	*	*	*	*	*	*	*	*	*	*	*	*	*ij	*	*
.	.	.	.	.	.	.	.	.	.	.	.	1f	QVae-	.	.
.	.	.	.	.	.	.	.	0c	QVae-	.	.	.	.	1g	-bus
.	.	.	.	.	.	.	.	.	.	.	.	4e/	.	.	.
.	.	.	.	.	.	.	.	.	.	.	.	4d/	.	.	.
=6-	=6-	=6-	=6-	=6-	=6-	=6-	=6-	=6-	=6-	=6-	=6-	=6-	=6-	=6-	=6-
.	.	.	.	.	.	.	.	.	.	.	.	2.e/	.	2r	.
.	.	.	.	.	.	.	.	.	.	.	.	.	.	2gg\	Quae-
.	.	.	.	.	.	.	.	.	.	.	.	4f\	.	.	.
.	.	.	.	.	.	.	.	1c	-ra-	.	.	2g\	-ra-	2gg\	-ra-
.	.	.	.	.	.	.	.	.	.	.	.	2e/	-mus	1cc\	-mus
=7-	=7-	=7-	=7-	=7-	=7-	=7-	=7-	=7-	=7-	=7-	=7-	=7-	=7-	=7-	=7-
00r	.	00r	.	00r	.	00r	.	1F	-mus	00r	.	1a	cum	.	.
.	.	.	.	.	.	.	.	.	.	.	.	.	.	2ff\	cu(m)
.	.	.	.	.	.	.	.	2r	.	.	.	2f\	paſ-	2ff\	paſ-
.	.	.	.	.	.	.	.	1c\	cu(m)	.	.	1g\	-to-	1ee\	-to-
=8-	=8-	=8-	=8-	=8-	=8-	=8-	=8-	=8-	=8-	=8-	=8-	=8-	=8-	=8-	=8-
.	.	.	.	.	.	.	.	.	.	.	.	.	.	.	.
.	.	.	.	.	.	.	.	2c\	paſ-	.	.	4f\	.	4dd\	.
.	.	.	.	.	.	.	.	.	.	.	.	4e/	.	4cc\	.
.	.	.	.	.	.	.	.	2B-\	-to-	.	.	4f\	.	2dd\	.
.	.	.	.	.	.	.	.	.	.	.	.	4e/	.	.	.
.	.	.	.	.	.	.	.	2A\	-ri-	.	.	4d/	.	1cc\	.
.	.	.	.	.	.	.	.	.	.	.	.	4c/	.	.	.
=9-	=9-	=9-	=9-	=9-	=9-	=9-	=9-	=9-	=9-	=9-	=9-	=9-	=9-	=9-	=9-
00r	.	00r	.	00r	.	00r	.	1G	-bus	0g	QVae-	2d/	.	.	.
!	!	!	!	!	!	!	!	!	!	!	!	!	!	!LO:N:acc=#	!
.	.	.	.	.	.	.	.	.	.	.	.	2d/	-ri-	2bn/	-ri-
.	.	.	.	.	.	.	.	2r	.	.	.	1c	-bus	2cc\	-bus
*	*	*	*	*	*	*	*	*	*	*	*	*	*Xij	*	*
.	.	.	.	.	.	.	.	1c\	Ver-	.	.	.	.	1cc\	Ver-
=10-	=10-	=10-	=10-	=10-	=10-	=10-	=10-	=10-	=10-	=10-	=10-	=10-	=10-	=10-	=10-
.	.	.	.	.	.	.	.	.	.	1g	-ra-	1r	.	.	.
.	.	.	.	.	.	.	.	2G\	-bu(m)	.	.	.	.	2b-y/	-bu(m)
*	*	*	*	*	*	*	*	*	*	*	*	*custos:f	*	*custos:a	*
!	!	!	!	!	!	!	!	!	!	!	!	!LO:LB:g=original	!	!LO:LB:g=original	!
.	.	.	.	.	.	.	.	2A\	in-	1c	-mus	2r	.	2a/	in-
.	.	.	.	.	.	.	.	2F/	-car-	.	.	1f\	Ver-	2a/	-car-
=11-	=11-	=11-	=11-	=11-	=11-	=11-	=11-	=11-	=11-	=11-	=11-	=11-	=11-	=11-	=11-
00r	.	00r	.	00r	.	00r	.	1c	-na-	1r	.	.	.	1g	-na-
.	.	.	.	.	.	.	.	.	.	.	.	2e/	-bu(m)	.	.
.	.	.	.	.	.	.	.	1F	-tum	2r	.	2f\	in-	2.a/	-tum
.	.	.	.	.	.	.	.	.	.	1f\	cum	2d/	-car-	.	.
.	.	.	.	.	.	.	.	.	.	.	.	.	.	4b-/	.
=12-	=12-	=12-	=12-	=12-	=12-	=12-	=12-	=12-	=12-	=12-	=12-	=12-	=12-	=12-	=12-
.	.	.	.	.	.	.	.	00r	.	.	.	1a	-na-	1cc	.
.	.	.	.	.	.	.	.	.	.	2f\	paſ-	.	.	.	.
.	.	.	.	.	.	.	.	.	.	1e	-to-	1g	-tum	2r	.
.	.	.	.	.	.	.	.	.	.	.	.	.	.	1cc\	Ver-
=13-	=13-	=13-	=13-	=13-	=13-	=13-	=13-	=13-	=13-	=13-	=13-	=13-	=13-	=13-	=13-
00r	.	00r	.	00r	.	00r	.	.	.	1d	-ri-	2r	.	.	.
.	.	.	.	.	.	.	.	.	.	.	.	1f	Ver-	2b-/	-bu(m)
.	.	.	.	.	.	.	.	.	.	1c	-bus	.	.	2cc\	in-
.	.	.	.	.	.	.	.	.	.	.	.	2e/	-bu(m)	2g/	-car-
=14-	=14-	=14-	=14-	=14-	=14-	=14-	=14-	=14-	=14-	=14-	=14-	=14-	=14-	=14-	=14-
.	.	.	.	.	.	.	.	2r	.	2r	.	2.f\	in-	2.a/	-na-
*	*	*	*	*	*	*	*	*	*ij	*	*	*	*	*	*
.	.	.	.	.	.	.	.	1F	Ver-	2c/	Ver-	.	.	.	.
.	.	.	.	.	.	.	.	.	.	.	.	4g\	.	4b-/	.
.	.	.	.	.	.	.	.	.	.	2A/	-bu(m)	2a\	.	2cc\	.
.	.	.	.	.	.	.	.	2D/	-bu(m)	2B-/	in-	2f\	-car-	2.dd\	.
=15-	=15-	=15-	=15-	=15-	=15-	=15-	=15-	=15-	=15-	=15-	=15-	=15-	=15-	=15-	=15-
0r	.	0r	.	0r	.	0r	.	2E/	in-	2G/	-car-	2.g\	-na-	.	.
.	.	.	.	.	.	.	.	.	.	.	.	.	.	4cc\	.
.	.	.	.	.	.	.	.	2C/	-car-	2.g\	-na-	.	.	1cc	.
.	.	.	.	.	.	.	.	.	.	.	.	8f\	.	.	.
.	.	.	.	.	.	.	.	.	.	.	.	8e\	.	.	.
.	.	.	.	.	.	.	.	1G	-na-	.	.	1d	.	.	.
.	.	.	.	.	.	.	.	.	.	8f\	.	.	.	.	.
.	.	.	.	.	.	.	.	.	.	8e\	.	.	.	.	.
!	!	!	!	!	!	!	!	!	!	!	!	!	!	!LO:N:acc=#	!
.	.	.	.	.	.	.	.	.	.	2d\	.	.	.	2bn/	.
=16-	=16-	=16-	=16-	=16-	=16-	=16-	=16-	=16-	=16-	=16-	=16-	=16-	=16-	=16-	=16-
0c	QVae-	0e	QVae-	0g	QVae-	0cc	QVae-	0C	-tum	0e	-tum	0c	-tum	0cc	-tum
*	*	*	*	*	*	*	*	*	*Xij	*	*	*	*	*	*
=17-	=17-	=17-	=17-	=17-	=17-	=17-	=17-	=17-	=17-	=17-	=17-	=17-	=17-	=17-	=17-
1c	-ra-	1g	-ra-	1cc	-ra-	1ee	-ra-	00r	.	00r	.	00r	.	00r	.
1F	-mus	1a	-mus	1cc	-mus	1ff	-mus	.	.	.	.	.	.	.	.
=18-	=18-	=18-	=18-	=18-	=18-	=18-	=18-	=18-	=18-	=18-	=18-	=18-	=18-	=18-	=18-
1.c	cum	1.g	cum	2.cc\	cum	1.ee	cum	.	.	.	.	.	.	.	.
.	.	.	.	8b-\	.	.	.	.	.	.	.	.	.	.	.
.	.	.	.	8a\	.	.	.	.	.	.	.	.	.	.	.
.	.	.	.	2g\	.	.	.	.	.	.	.	.	.	.	.
2c\	paſ-	2e\	paſ-	2a\	paſ-	2cc\	paſ-	.	.	.	.	.	.	.	.
=19-	=19-	=19-	=19-	=19-	=19-	=19-	=19-	=19-	=19-	=19-	=19-	=19-	=19-	=19-	=19-
2B-\	-to-	4f\	-to-	2b-\	-to-	2dd\	-to-	00r	.	00r	.	00r	.	00r	.
.	.	4e\	.	.	.	.	.	.	.	.	.	.	.	.	.
2A\	-ri-	4d\	.	2f\	-ri-	1cc	.	.	.	.	.	.	.	.	.
.	.	4c/	.	.	.	.	.	.	.	.	.	.	.	.	.
1G	-bus	2d\	.	1g	-bus	.	.	.	.	.	.	.	.	.	.
!	!	!	!	!	!	!LO:N:acc=#	!	!	!	!	!	!	!	!	!
.	.	2d\	-ri-	.	.	2bn/	-ri-	.	.	.	.	.	.	.	.
=20-	=20-	=20-	=20-	=20-	=20-	=20-	=20-	=20-	=20-	=20-	=20-	=20-	=20-	=20-	=20-
2r	.	2c/	-bus	1.g	Ver-	2cc\	-bus	.	.	.	.	.	.	.	.
1c	Ver-	1e	Ver-	.	.	1cc	Ver-	.	.	.	.	.	.	.	.
2G\	-bum	2g\	-bu(m)	2b-\	-bum	2dd\	-bum	.	.	.	.	.	.	.	.
=21-	=21-	=21-	=21-	=21-	=21-	=21-	=21-	=21-	=21-	=21-	=21-	=21-	=21-	=21-	=21-
2A\	in-	2e\	in-	2a\	in-	2cc\	in-	0r	.	0r	.	0r	.	0r	.
2F/	-car-	1f	-car-	2a\	-car-	2cc\	-car-	.	.	.	.	.	.	.	.
1c	-na-	.	.	1g	-na-	1cc	-na-	.	.	.	.	.	.	.	.
.	.	2e\	-na-	.	.	.	.	.	.	.	.	.	.	.	.
=22-	=22-	=22-	=22-	=22-	=22-	=22-	=22-	=22-	=22-	=22-	=22-	=22-	=22-	=22-	=22-
1F	-tum	1f	-tum	1a	-tum	1cc	-tum	1r	.	1r	.	1r	.	1r	.
*custos:F	*	*custos:f	*	*custos:a	*	*custos:ff	*	*	*	*	*	*	*ij	*	*
!LO:PB:g=original	!	!LO:LB:g=original	!	!LO:PB:g=original	!	!LO:PB:g=original	!	!	!	!	!	!	!	!	!
2r	.	2r	.	2r	.	2r	.	1.F	Ver-	1.A	Ver-	1.f	Ver-	1.cc	Ver-
*	*ij	*	*ij	*	*ij	*	*ij	*	*	*	*	*	*	*	*
1F\	Ver-	1f\	Ver-	1a\	Ver-	1ff\	Ver-	.	.	.	.	.	.	.	.
=23-	=23-	=23-	=23-	=23-	=23-	=23-	=23-	=23-	=23-	=23-	=23-	=23-	=23-	=23-	=23-
.	.	.	.	.	.	.	.	.	.	.	.	.	.	.	.
2B-\	-bum	2d\	-bu(m)	2b-\	-bum	2ff\	-bum	2BB-/	-bum	2F/	-bum	2f\	-bu(m)	2dd\	-bu(m)
*	*	*	*	*	*	*	*	*custos:F	*	*custos:A	*	*	*	*	*
!	!	!	!	!	!	!	!	!LO:LB:g=original	!	!LO:LB:g=original	!	!	!	!	!
1.F	in-	2f\	in-	1.a	in-	2.ff\	in-	1.F	in-	4A/	in-	1.f	in-	2.cc\	in-
.	.	.	.	.	.	.	.	.	.	4G/	.	.	.	.	.
.	.	1c\	-car-	.	.	.	.	.	.	4A/	.	.	.	.	.
.	.	.	.	.	.	8ee\	.	.	.	4B-/	.	.	.	4b-y/	.
.	.	.	.	.	.	8dd\	.	.	.	.	.	.	.	.	.
=24-	=24-	=24-	=24-	=24-	=24-	=24-	=24-	=24-	=24-	=24-	=24-	=24-	=24-	=24-	=24-
.	.	.	.	.	.	2cc\	.	.	.	2c/	.	.	.	2a/	.
2F/	-car-	2.f\	-na-	2f\	-car-	2cc\	-car-	2F/	-car-	2A/	-car-	2c/	-car-	2cc\	-car-
1c	-na-	.	.	1g	-na-	1cc	-na-	1C	-na-	1G	-na-	1c	-na-	1cc	-na-
.	.	8e\	.	.	.	.	.	.	.	.	.	.	.	.	.
.	.	8d\	.	.	.	.	.	.	.	.	.	.	.	.	.
.	.	2e\	.	.	.	.	.	.	.	.	.	.	.	.	.
=25-	=25-	=25-	=25-	=25-	=25-	=25-	=25-	=25-	=25-	=25-	=25-	=25-	=25-	=25-	=25-
0F	-tum	0f	-tum	0a	-tum	0cc	-tum	0F	-tum	2F/	-tu(m)	1c	-tum	1a	-tum
.	.	.	.	.	.	.	.	.	.	2A/	Can-	.	.	.	.
*	*Xij	*	*Xij	*	*Xij	*	*Xij	*	*	*	*	*	*Xij	*custos:f	*
!	!	!	!	!	!	!	!	!	!	!	!	!	!	!LO:LB:g=original	!
.	.	.	.	.	.	.	.	.	.	4A/	-te-	2r	.	2r	.
.	.	.	.	.	.	.	.	.	.	4B-/	.	.	.	.	.
.	.	.	.	.	.	.	.	.	.	4c/	.	2f\	Can-	2f/	Can-
.	.	.	.	.	.	.	.	.	.	4A/	.	.	.	.	.
*	*	*	*	*	*	*	*	*	*	*	*	*custos:f	*	*	*
!	!	!	!	!	!	!	!	!	!	!	!	!LO:LB:g=original	!	!	!
=26-	=26-	=26-	=26-	=26-	=26-	=26-	=26-	=26-	=26-	=26-	=26-	=26-	=26-	=26-	=26-
00r	.	00r	.	00r	.	00r	.	00r	.	2.d\	.	4f\	-te-	4f/	-te-
.	.	.	.	.	.	.	.	.	.	.	.	4e/	.	4g/	.
.	.	.	.	.	.	.	.	.	.	.	.	4f\	.	4a/	.
.	.	.	.	.	.	.	.	.	.	8c/	.	4d/	.	4b-/	.
.	.	.	.	.	.	.	.	.	.	8B-/	.	.	.	.	.
.	.	.	.	.	.	.	.	.	.	2A/	.	4e/	.	4cc\	.
.	.	.	.	.	.	.	.	.	.	.	.	4f\	.	4a/	.
.	.	.	.	.	.	.	.	.	.	2G/	.	4g\	.	4b-/	.
.	.	.	.	.	.	.	.	.	.	.	.	4e/	.	4cc\	.
=27-	=27-	=27-	=27-	=27-	=27-	=27-	=27-	=27-	=27-	=27-	=27-	=27-	=27-	=27-	=27-
.	.	.	.	.	.	.	.	.	.	2F/	.	4f\	.	4dd\	.
.	.	.	.	.	.	.	.	.	.	.	.	4e/	.	4cc\	.
.	.	.	.	.	.	.	.	.	.	2A/	.	4e/	.	1cc	.
.	.	.	.	.	.	.	.	.	.	.	.	8d/	.	.	.
.	.	.	.	.	.	.	.	.	.	.	.	8c/	.	.	.
.	.	.	.	.	.	.	.	.	.	1G	.	1d	.	.	.
!	!	!	!	!	!	!	!	!	!	!	!	!	!	!LO:N:acc=#	!
.	.	.	.	.	.	.	.	.	.	.	.	.	.	2bn/	.
=28-	=28-	=28-	=28-	=28-	=28-	=28-	=28-	=28-	=28-	=28-	=28-	=28-	=28-	=28-	=28-
00r	.	00r	.	00r	.	00r	.	2r	.	2c/	-mus	1c	-mus	1cc	-mus
.	.	.	.	.	.	.	.	2F/	Can-	2f\	Can-	.	.	.	.
.	.	.	.	.	.	.	.	4F/	-te-	4f\	-te-	1r	.	1r	.
.	.	.	.	.	.	.	.	4G\	.	4e\	.	.	.	.	.
.	.	.	.	.	.	.	.	4A\	.	4f\	.	.	.	.	.
.	.	.	.	.	.	.	.	4B-\	.	4d\	.	.	.	.	.
=29-	=29-	=29-	=29-	=29-	=29-	=29-	=29-	=29-	=29-	=29-	=29-	=29-	=29-	=29-	=29-
.	.	.	.	.	.	.	.	4c\	.	4e\	.	00r	.	00r	.
.	.	.	.	.	.	.	.	4A\	.	4f\	.	.	.	.	.
.	.	.	.	.	.	.	.	4B-\	.	4g\	.	.	.	.	.
.	.	.	.	.	.	.	.	4c\	.	4e\	.	.	.	.	.
.	.	.	.	.	.	.	.	4d\	.	4f\	.	.	.	.	.
.	.	.	.	.	.	.	.	4c\	.	4e\	.	.	.	.	.
.	.	.	.	.	.	.	.	2.c\	.	4e\	.	.	.	.	.
.	.	.	.	.	.	.	.	.	.	8d\	.	.	.	.	.
.	.	.	.	.	.	.	.	.	.	8c\	.	.	.	.	.
*	*	*	*	*	*	*	*	*	*	*custos:d	*	*	*	*	*
!	!	!	!	!	!	!	!	!	!	!LO:LB:g=original	!	!	!	!	!
=30-	=30-	=30-	=30-	=30-	=30-	=30-	=30-	=30-	=30-	=30-	=30-	=30-	=30-	=30-	=30-
1r	.	1r	.	1r	.	1r	.	.	.	1d	.	.	.	.	.
!	!	!	!	!	!	!	!	!LO:N:acc=#	!	!	!	!	!	!	!
.	.	.	.	.	.	.	.	8Bn\	.	.	.	.	.	.	.
.	.	.	.	.	.	.	.	8A\	.	.	.	.	.	.	.
!	!	!	!	!	!	!	!	!LO:N:acc=#	!	!	!	!	!	!	!
.	.	.	.	.	.	.	.	2Bn\	.	.	.	.	.	.	.
2r	.	2r	.	2r	.	2r	.	1c	-mus	1c	-mus	.	.	.	.
2F/	Can-	2c/	Can-	2.a\	Can-	2f/	Can-	.	.	.	.	.	.	.	.
=31-	=31-	=31-	=31-	=31-	=31-	=31-	=31-	=31-	=31-	=31-	=31-	=31-	=31-	=31-	=31-
4F/	-te-	2.c/	-te-	.	.	4f/	-te-	00r	.	00r	.	00r	.	00r	.
4E/	.	.	.	4g\	.	4g/	.	.	.	.	.	.	.	.	.
4F/	.	.	.	2f\	.	4a/	.	.	.	.	.	.	.	.	.
4D/	.	4d\	.	.	.	4b-y/	.	.	.	.	.	.	.	.	.
4E/	.	2c/	.	2e/	-te-	4cc\	.	.	.	.	.	.	.	.	.
4F/	.	.	.	.	.	4a/	.	.	.	.	.	.	.	.	.
4G\	.	2g\	.	4d/	-mus	4b-/	.	.	.	.	.	.	.	.	.
4E/	.	.	.	4g\	Can-	4cc\	.	.	.	.	.	.	.	.	.
=32-	=32-	=32-	=32-	=32-	=32-	=32-	=32-	=32-	=32-	=32-	=32-	=32-	=32-	=32-	=32-
4F/	.	4f\	.	4a\	-te-	2dd\	.	.	.	.	.	.	.	.	.
4G\	.	4e\	.	8g\	.	.	.	.	.	.	.	.	.	.	.
.	.	.	.	8f\	.	.	.	.	.	.	.	.	.	.	.
2A\	.	4e\	.	4e/	.	1cc	.	.	.	.	.	.	.	.	.
.	.	8d\	.	4f\	.	.	.	.	.	.	.	.	.	.	.
.	.	8c\	.	.	.	.	.	.	.	.	.	.	.	.	.
1G	.	1d	.	1g	.	.	.	.	.	.	.	.	.	.	.
!	!	!	!	!	!	!LO:N:acc=#	!	!	!	!	!	!	!	!	!
.	.	.	.	.	.	2bn/	.	.	.	.	.	.	.	.	.
=33-	=33-	=33-	=33-	=33-	=33-	=33-	=33-	=33-	=33-	=33-	=33-	=33-	=33-	=33-	=33-
1C	-mus	1c	-mus	1g	-mus	1cc	-mus	1r	.	1r	.	1r	.	1r	.
2r	.	2r	.	2r	.	2r	.	1c	Can-	2r	.	1g	Can-	1cc	Can-
*	*	*	*ij	*	*ij	*	*	*	*	*	*ij	*	*	*	*
2C/	Can-	2c/	Can-	2e/	Can-	2ee\	Can-	.	.	2c/	Can-	.	.	.	.
=34-	=34-	=34-	=34-	=34-	=34-	=34-	=34-	=34-	=34-	=34-	=34-	=34-	=34-	=34-	=34-
0F	-te-	2.c/	-te-	4a\	-te-	0ff	-te-	2.A\	-te-	4c/	-te-	0a	-te-	0cc	-te-
.	.	.	.	4g\	.	.	.	.	.	4B-/	.	.	.	.	.
.	.	.	.	4f\	.	.	.	.	.	4A/	.	.	.	.	.
.	.	4B-/	.	4g\	.	.	.	4G\	.	4B-/	.	.	.	.	.
.	.	2A/	.	4a\	.	.	.	4F/	.	2.c/	.	.	.	.	.
.	.	.	.	4b-\	.	.	.	4G\	.	.	.	.	.	.	.
.	.	2F/	.	1cc\	.	.	.	4A\	.	.	.	.	.	.	.
.	.	.	.	.	.	.	.	4B-y\	.	4d\	.	.	.	.	.
=35-	=35-	=35-	=35-	=35-	=35-	=35-	=35-	=35-	=35-	=35-	=35-	=35-	=35-	=35-	=35-
*	*	*	*	*	*	*	*	*	*	*	*	*lig	*	*	*
1C	-mus	1G	-mus	.	.	1ee	-mus	1c	.	1e	.	1g	-mus	0cc	-mus
.	.	.	.	2g\	-mus	.	.	.	.	.	.	.	.	.	.
*	*	*	*Xij	*custos:f	*Xij	*custos:cc	*	*	*	*	*	*	*	*	*
!	!	!	!	!LO:LB:g=original	!	!LO:LB:g=original	!	!	!	!	!	!	!	!	!
2r	.	2r	.	2r	.	2r	.	1F	-mus	1f	-mus	1a	.	.	.
1F\	cum	1A/	cu(m)	1f\	cum	1cc\	cum	.	.	.	.	.	.	.	.
*	*	*	*	*	*	*	*	*custos:C	*	*	*Xij	*Xlig	*	*	*
!	!	!	!	!	!	!	!	!LO:LB:g=original	!	!	!	!	!	!	!
=36-	=36-	=36-	=36-	=36-	=36-	=36-	=36-	=36-	=36-	=36-	=36-	=36-	=36-	=36-	=36-
.	.	.	.	.	.	.	.	00r	.	00r	.	00r	.	00r	.
2D/	ho-	2f\	ho-	2a\	ho-	2dd\	ho-	.	.	.	.	.	.	.	.
*custos:G	*	*custos:d	*	*	*	*	*	*	*	*	*	*	*	*	*
!LO:LB:g=original	!	!LO:LB:g=original	!	!	!	!	!	!	!	!	!	!	!	!	!
2.G\	-mi-	2.d\	-mi-	2.g\	-mi-	2.b-y/	-mi-	.	.	.	.	.	.	.	.
4G\	-ni-	4d\	-ni-	4g\	-ni-	4b-/	-ni-	.	.	.	.	.	.	.	.
=37-	=37-	=37-	=37-	=37-	=37-	=37-	=37-	=37-	=37-	=37-	=37-	=37-	=37-	=37-	=37-
2D/	-bus	2.d\	-bus	2.f\	-bus	2a/	-bus	.	.	.	.	.	.	.	.
1d	Re-	.	.	.	.	1ff	Re-	.	.	.	.	.	.	.	.
.	.	8c/	.	4g\	.	.	.	.	.	.	.	.	.	.	.
.	.	8B-/	.	.	.	.	.	.	.	.	.	.	.	.	.
.	.	2A/	.	2a\	.	.	.	.	.	.	.	.	.	.	.
4c\	.	1a\	Re-	2A/	Re-	4ee\	.	.	.	.	.	.	.	.	.
4B-\	.	.	.	.	.	4dd\	.	.	.	.	.	.	.	.	.
=38-	=38-	=38-	=38-	=38-	=38-	=38-	=38-	=38-	=38-	=38-	=38-	=38-	=38-	=38-	=38-
2A\	.	.	.	2c/	-gi	2cc\	.	0r	.	0r	.	0r	.	0r	.
2B-\	-gi	4g\	.	2d/	ſe-	2b-/	-gi	.	.	.	.	.	.	.	.
.	.	4f\	.	.	.	.	.	.	.	.	.	.	.	.	.
2c\	ſe-	2e\	.	2.c/	.	2g/	ſe-	.	.	.	.	.	.	.	.
2F/	-cu-	2f\	-gi	.	.	2a/	-cu-	.	.	.	.	.	.	.	.
.	.	.	.	4A/	.	.	.	.	.	.	.	.	.	.	.
=39-	=39-	=39-	=39-	=39-	=39-	=39-	=39-	=39-	=39-	=39-	=39-	=39-	=39-	=39-	=39-
!	!	!	!	!LO:N:acc=#	!	!	!	!	!	!	!	!	!	!	!
1G	-lo-	2d\	ſe-	2Bn/	.	0g	-lo-	2r	.	2r	.	2r	.	2r	.
.	.	1c	-cu-	2c/	-cu-	.	.	2C/	Can-	2e\	Ca(n)-	2g\	Can-	2gg\	Can-
1G	-rum	.	.	1d	-lo-	.	.	1G	-te-	1d	-te-	1g	-te-	1gg	-te-
!	!	!LO:N:acc=#	!	!	!	!	!	!	!	!	!	!	!	!	!
.	.	2Bn/	-lo-	.	.	.	.	.	.	.	.	.	.	.	.
=40-	=40-	=40-	=40-	=40-	=40-	=40-	=40-	=40-	=40-	=40-	=40-	=40-	=40-	=40-	=40-
0r	.	1c	-rum	1e	-rum	1g	-rum	2C/	-mus	2c/	-mus	2g\	-mus	2ee\	-mus
.	.	.	.	.	.	.	.	1c	cu(m)	1e	cu(m)	1g	cu(m)	1cc	cu(m)
.	.	1r	.	1r	.	1r	.	.	.	.	.	.	.	.	.
.	.	.	.	.	.	.	.	2A\	ho-	2e\	ho-	2a\	ho-	2cc\	ho-
=41-	=41-	=41-	=41-	=41-	=41-	=41-	=41-	=41-	=41-	=41-	=41-	=41-	=41-	=41-	=41-
00r	.	00r	.	00r	.	00r	.	2.d\	-mi-	2.f\	-mi-	2.a\	-mi-	2.dd\	-mi-
.	.	.	.	.	.	.	.	4d\	-ni-	4f\	-ni-	4a\	-ni-	4dd\	-ni-
.	.	.	.	.	.	.	.	2A\	-bus	2e\	-bus	1a	-bus	2cc\	-bus
*	*	*	*	*	*	*	*	*	*	*	*	*	*	*custos:ff	*
!	!	!	!	!	!	!	!	!	!	!	!	!	!	!LO:LB:g=original	!
.	.	.	.	.	.	.	.	1d\	Re-	4d\	Re-	.	.	1ff\	Re-
.	.	.	.	.	.	.	.	.	.	4e\	.	.	.	.	.
*	*	*	*	*	*	*	*	*	*	*	*	*custos:cc	*	*	*
!	!	!	!	!	!	!	!	!	!	!	!	!LO:LB:g=original	!	!	!
=42-	=42-	=42-	=42-	=42-	=42-	=42-	=42-	=42-	=42-	=42-	=42-	=42-	=42-	=42-	=42-
.	.	.	.	.	.	.	.	.	.	4f\	.	2r	.	.	.
.	.	.	.	.	.	.	.	.	.	4g\	.	.	.	.	.
.	.	.	.	.	.	.	.	4c\	.	1a	.	1cc	Re-	4ee\	.
.	.	.	.	.	.	.	.	4B-\	.	.	.	.	.	4dd\	.
.	.	.	.	.	.	.	.	2A\	.	.	.	.	.	2cc\	.
.	.	.	.	.	.	.	.	2B-\	-gi	4g\	.	4b-\	.	2dd\	-gi
.	.	.	.	.	.	.	.	.	.	4f\	.	4a\	.	.	.
=43-	=43-	=43-	=43-	=43-	=43-	=43-	=43-	=43-	=43-	=43-	=43-	=43-	=43-	=43-	=43-
00r	.	00r	.	00r	.	00r	.	4c\	ſe-	2e\	.	2g\	.	2.cc\	ſe-
.	.	.	.	.	.	.	.	4B-\	.	.	.	.	.	.	.
.	.	.	.	.	.	.	.	4A\	.	2e\	-gi	1a	-gi	.	.
.	.	.	.	.	.	.	.	4G\	.	.	.	.	.	4b-y/	.
.	.	.	.	.	.	.	.	2F/	.	2f\	ſe-	.	.	2a/	.
!	!	!	!	!	!	!	!	!	!	!	!	!	!	!LO:N:acc=#	!
.	.	.	.	.	.	.	.	2G\	-cu-	4e\	.	4g\	ſe-	2bn/	-cu-
.	.	.	.	.	.	.	.	.	.	4d\	.	4f\	.	.	.
*	*	*	*	*	*	*	*	*	*	*custos:c	*	*	*	*	*
!	!	!	!	!	!	!	!	!	!	!LO:LB:g=original	!	!	!	!	!
=44-	=44-	=44-	=44-	=44-	=44-	=44-	=44-	=44-	=44-	=44-	=44-	=44-	=44-	=44-	=44-
.	.	.	.	.	.	.	.	2.A\	-lo-	2c/	.	2e/	.	0cc	-lo-
.	.	.	.	.	.	.	.	.	.	1f	-cu-	2a\	-cu-	.	.
.	.	.	.	.	.	.	.	4B-\	.	.	.	.	.	.	.
.	.	.	.	.	.	.	.	1c	.	.	.	1g	-lo-	.	.
.	.	.	.	.	.	.	.	.	.	2e\	-lo-	.	.	.	.
=45-	=45-	=45-	=45-	=45-	=45-	=45-	=45-	=45-	=45-	=45-	=45-	=45-	=45-	=45-	=45-
2r	.	2r	.	2r	.	2r	.	1F	-rum	1f	-rum	1a	-rum	1cc	-rum
2F/	No-	2c/	No-	2f\	No-	2ff\	No-	.	.	.	.	.	.	.	.
2.F/	-e	2c/	-e	2.a\	-e	1.ff	-e	1r	.	1r	.	1r	.	1r	.
*	*	*	*ij	*	*	*	*	*	*	*	*	*	*	*	*
.	.	2d\	No-	.	.	.	.	.	.	.	.	.	.	.	.
*	*ij	*	*	*	*ij	*	*	*	*	*	*	*	*	*	*
4G\	No-	.	.	4b-\	No-	.	.	.	.	.	.	.	.	.	.
=46-	=46-	=46-	=46-	=46-	=46-	=46-	=46-	=46-	=46-	=46-	=46-	=46-	=46-	=46-	=46-
2A\	-e	2c/	-e	2cc\	-e	.	.	2r	.	2r	.	2r	.	2r	.
*	*Xij	*	*Xij	*	*Xij	*	*ij	*	*	*	*	*	*	*	*
2B-\	No-	2d\	No-	2b-\	No-	2dd\	No-	2BB-/	No-	2B-/	No-	2f\	No-	2ff\	No-
1F	-e	1f	-e	1a	-e	4cc\	.	2.F/	-e	2c/	-e	2.a\	-e	1.ff	-e
.	.	.	.	.	.	4b-/	.	.	.	.	.	.	.	.	.
*	*	*	*	*	*	*	*	*	*	*	*ij	*	*	*	*
.	.	.	.	.	.	4a/	.	.	.	2d\	No-	.	.	.	.
*	*	*	*	*	*	*	*	*	*ij	*	*	*	*ij	*	*
.	.	.	.	.	.	4g/	.	4G\	No-	.	.	4b-\	No-	.	.
=47-	=47-	=47-	=47-	=47-	=47-	=47-	=47-	=47-	=47-	=47-	=47-	=47-	=47-	=47-	=47-
2r	.	2r	.	2r	.	1f	-e	2A\	-e	2c/	-e	2cc\	-e	.	.
*	*	*	*ij	*	*ij	*	*Xij	*	*	*	*Xij	*	*	*	*ij
2BB-/	No-	2B-y/	No-	2f\	No-	.	.	2B-\	No-	2f\	No-	2b-\	No-	2dd\	No-
2.F/	-e	4c/	.	2.a\	-e	2r	.	1F	-e	1f	-e	1a	-e	1cc	-e
*	*	*	*	*	*Xij	*	*	*	*Xij	*	*	*	*Xij	*	*Xij
.	.	4B-/	.	.	.	.	.	.	.	.	.	.	.	.	.
.	.	4A/	.	.	.	2ff\	No-	.	.	.	.	.	.	.	.
*	*ij	*	*	*	*	*	*	*	*	*	*	*	*	*	*
4G\	No-	4G/	.	4b-\	No-	.	.	.	.	.	.	.	.	.	.
*	*	*	*	*custos:cc	*	*	*	*custos:BB	*	*	*	*	*	*	*
!	!	!	!	!LO:LB:g=original	!	!	!	!LO:LB:g=original	!	!	!	!	!	!	!
=48-	=48-	=48-	=48-	=48-	=48-	=48-	=48-	=48-	=48-	=48-	=48-	=48-	=48-	=48-	=48-
2A\	-e	2F/	-e	2cc\	-e	2ff\	-e	2r	.	2r	.	2r	.	2r	.
*	*Xij	*	*	*	*ij	*	*ij	*	*	*	*ij	*	*	*	*
2B-\	No-	2f\	No-	2b-\	No-	2dd\	No-	2BB-/	No-	2B-/	No-	2f\	No-	2ff\	No-
1F	-e	1f	-e	1a	-e	1cc	-e	2.F/	-e	4c/	.	2.a\	-e	1.ff	-e
.	.	.	.	.	.	.	.	.	.	4B-/	.	.	.	.	.
.	.	.	.	.	.	.	.	.	.	4A/	.	.	.	.	.
*	*	*	*Xij	*	*Xij	*	*Xij	*	*ij	*	*	*	*ij	*	*
.	.	.	.	.	.	.	.	4G\	No-	4G/	.	4b-\	No-	.	.
*custos:BB	*	*custos:d	*	*	*	*custos:dd	*	*	*	*	*	*	*	*	*
!LO:LB:g=original	!	!LO:LB:g=original	!	!	!	!LO:LB:g=original	!	!	!	!	!	!	!	!	!
=49-	=49-	=49-	=49-	=49-	=49-	=49-	=49-	=49-	=49-	=49-	=49-	=49-	=49-	=49-	=49-
2r	.	2r	.	2r	.	2r	.	2A\	-e	2F/	-e	2cc\	-e	.	.
*	*	*	*	*	*	*	*	*	*	*	*Xij	*	*	*	*ij
2BB-/	No-	2d\	No-	2f\	No-	2dd\	No-	2B-\	No-	2f\	No-	2b-\	No-	2ff\	No-
2.F/	-e	2.A/	-e	2.f\	-e	2.cc\	-e	1F	-e	1f	-e	1a	-e	1ff	-e
*	*ij	*	*ij	*	*ij	*	*ij	*	*Xij	*	*	*	*Xij	*	*Xij
4F/	No-	4c/	No-	4f\	No-	4cc\	No-	.	.	.	.	.	.	.	.
=50-	=50-	=50-	=50-	=50-	=50-	=50-	=50-	=50-	=50-	=50-	=50-	=50-	=50-	=50-	=50-
2F/	-e	2c/	-e	2f\	-e	2a/	-e	1r	.	1r	.	1r	.	1r	.
*	*	*	*Xij	*	*	*	*Xij	*	*	*	*	*	*	*	*
!	!	!LO:N:acc=#	!	!	!	!	!	!	!	!	!	!	!	!	!
2G\	No-	2Bn/	No-	2d/	No-	2g/	No-	.	.	.	.	.	.	.	.
1C	-e	1c	-e	1e	-e	1g	-e	2r	.	2r	.	2r	.	2r	.
*	*Xij	*	*	*	*Xij	*	*	*	*	*	*	*	*	*	*
.	.	.	.	.	.	.	.	1c\	Que(m)	1e\	Que(m)	1g\	Que(m)	1cc\	Que(m)
=51-	=51-	=51-	=51-	=51-	=51-	=51-	=51-	=51-	=51-	=51-	=51-	=51-	=51-	=51-	=51-
00r	.	00r	.	00r	.	00r	.	.	.	.	.	.	.	.	.
.	.	.	.	.	.	.	.	2A\	tu	2f\	tu	1a	tu	2cc\	tu
*	*	*	*	*	*	*	*	*	*	*lig	*	*	*	*	*
.	.	.	.	.	.	.	.	1B-	vi-	1d	vi-	.	.	1dd	vi-
.	.	.	.	.	.	.	.	.	.	.	.	2g\	vi-	.	.
=52-	=52-	=52-	=52-	=52-	=52-	=52-	=52-	=52-	=52-	=52-	=52-	=52-	=52-	=52-	=52-
.	.	.	.	.	.	.	.	2.A\	-des	1e	.	1.a	-des	1.cc	-des
.	.	.	.	.	.	.	.	4G\	.	.	.	.	.	.	.
*	*	*	*	*	*	*	*	*	*	*Xlig	*	*	*	*	*
.	.	.	.	.	.	.	.	2F/	.	2f\	-des	.	.	.	.
.	.	.	.	.	.	.	.	2E/	in	2g\	in	2g\	in	2cc\	in
*	*	*	*	*	*	*	*	*	*	*	*	*custos:a	*	*	*
!	!	!	!	!	!	!	!	!	!	!	!	!LO:LB:g=original	!	!	!
=53-	=53-	=53-	=53-	=53-	=53-	=53-	=53-	=53-	=53-	=53-	=53-	=53-	=53-	=53-	=53-
0r	.	0r	.	0r	.	0r	.	2F/	ſta-	2f\	ſta-	2a\	ſta-	2cc\	ſta-
.	.	.	.	.	.	.	.	2G\	-bu-	2d\	-bu-	2g\	-bu-	2b-y/	-bu-
.	.	.	.	.	.	.	.	1D	-lo	1d	-lo	1f	-lo	1a	-lo
*	*	*	*	*	*	*	*	*	*	*	*	*	*	*custos:ff	*
!	!	!	!	!	!	!	!	!	!	!	!	!	!	!LO:LB:g=original	!
=54-	=54-	=54-	=54-	=54-	=54-	=54-	=54-	=54-	=54-	=54-	=54-	=54-	=54-	=54-	=54-
1.B-	Ie-	1.d	Ie-	1.f	Ie-	1.b-	Ie-	00r	.	00r	.	00r	.	00r	.
2B-\	-ſum	2d\	-ſum	2f\	-ſum	2b-/	-ſum	.	.	.	.	.	.	.	.
=55-	=55-	=55-	=55-	=55-	=55-	=55-	=55-	=55-	=55-	=55-	=55-	=55-	=55-	=55-	=55-
1B-	na-	1d	na-	1f	na-	1b-	na-	.	.	.	.	.	.	.	.
1F	-tum	1c	-tum	1f	-tum	1a	-tum	.	.	.	.	.	.	.	.
=56-	=56-	=56-	=56-	=56-	=56-	=56-	=56-	=56-	=56-	=56-	=56-	=56-	=56-	=56-	=56-
*	*ij	*	*	*	*ij	*	*ij	*	*	*	*	*	*	*	*
1.BB-	Ie-	2r	.	1.f	Ie-	1.dd	Ie-	1.B-	Ie-	1.d	Ie-	1.b-	Ie-	1.ff	Ie-
*	*	*	*ij	*	*	*	*	*	*	*	*	*	*	*	*
.	.	1B-y	Ie-	.	.	.	.	.	.	.	.	.	.	.	.
2BB-/	-ſum	2F/	-ſum	2f\	-ſum	2dd\	-ſum	2B-\	-ſum	2d\	-ſum	2b-\	-ſum	2ff\	-ſum
=57-	=57-	=57-	=57-	=57-	=57-	=57-	=57-	=57-	=57-	=57-	=57-	=57-	=57-	=57-	=57-
1BB-	na-	1F	na-	1f	na-	2dd\	na-	1B-	na-	1d	na-	1b-	na-	1ff	na-
.	.	.	.	.	.	2b-/	-tum	.	.	.	.	.	.	.	.
*	*	*	*	*	*	*	*Xij	*	*	*custos:c	*	*	*	*	*
!	!	!	!	!	!	!	!	!	!	!LO:LB:g=original	!	!	!	!	!
1F	-tum	1A	-tum	1f	-tum	0cc	de	1F	-tum	1c	-tu(m)	1a	-tu(m)	1ff	-tum
*	*Xij	*	*Xij	*	*Xij	*	*	*	*	*	*	*	*	*	*
=58-	=58-	=58-	=58-	=58-	=58-	=58-	=58-	=58-	=58-	=58-	=58-	=58-	=58-	=58-	=58-
2.C/	de	1c	de	2r	.	.	.	2r	.	2.e\	de	0g	de	2.gg\	de
.	.	.	.	2e/	de	.	.	2.c\	de	.	.	.	.	.	.
4D/	.	.	.	.	.	.	.	.	.	4f\	.	.	.	4ff\	.
4E/	.	1.G	vir-	2c/	vir-	1.gg	vir-	.	.	1g	.	.	.	2ee\	.
!	!	!	!	!	!	!	!	!LO:N:acc=#	!	!	!	!	!	!	!
4F/	.	.	.	.	.	.	.	8Bn\	.	.	.	.	.	.	.
.	.	.	.	.	.	.	.	8A\	.	.	.	.	.	.	.
!	!	!	!	!	!	!	!	!LO:N:acc=#	!	!	!	!	!	!	!
*	*	*	*	*	*	*	*	*	*	*	*	*	*	*lig	*
2G\	.	.	.	2g\	-gi-	.	.	2Bn\	.	.	.	.	.	1dd\	vir-
=59-	=59-	=59-	=59-	=59-	=59-	=59-	=59-	=59-	=59-	=59-	=59-	=59-	=59-	=59-	=59-
*	*	*	*	*	*	*	*	*lig	*	*	*	*	*	*	*
2.C/	vir-	.	.	0g	-ne	.	.	1c	vi-	2.e\	vir-	1.g	vir-	.	.
.	.	2G/	-gi-	.	.	2ee\	-gi-	.	.	.	.	.	.	1cc	.
4C/	-gi-	.	.	.	.	.	.	.	.	8d\	.	.	.	.	.
.	.	.	.	.	.	.	.	.	.	8c\	.	.	.	.	.
*	*	*	*	*	*	*	*	*col	*	*	*	*	*	*	*
1G	-ne	1G	-ne	.	.	1dd	-ne	2.G\	.	2d\	.	.	.	.	.
*	*	*	*	*	*	*	*	*Xlig	*	*	*	*	*	*Xlig	*
!	!	!	!	!	!	!	!	!	!	!	!	!	!	!LO:N:acc=#	!
.	.	.	.	.	.	.	.	.	.	2d\	-gi-	2g\	-gi-	2bn/	-gi-
.	.	.	.	.	.	.	.	4G\	-gi-	.	.	.	.	.	.
*	*	*	*	*	*	*	*	*Xcol	*	*	*	*	*	*	*
*	*	*	*	*	*	*	*	*custos:F	*	*	*	*	*	*	*
!	!	!	!	!	!	!	!	!LO:LB:g=original	!	!	!	!	!	!	!
=60-	=60-	=60-	=60-	=60-	=60-	=60-	=60-	=60-	=60-	=60-	=60-	=60-	=60-	=60-	=60-
2r	.	2r	.	2r	.	2r	.	1F	-ne	1f	-ne	1a	-ne	1cc	-ne
2F/	Quid	2c/	Quid	2a\	Quid	2cc\	Quid	.	.	.	.	.	.	.	.
2E/	au-	2e\	au-	2g\	au-	2cc\	au-	1r	.	1r	.	1r	.	1r	.
2D/	-dis	2f\	-dis	2b-\	-dis	2dd\	-dis	.	.	.	.	.	.	.	.
*custos:F	*	*	*	*custos:a	*	*	*	*	*	*	*	*	*	*	*
!LO:LB:g=original	!	!	!	!LO:LB:g=original	!	!	!	!	!	!	!	!	!	!	!
=61-	=61-	=61-	=61-	=61-	=61-	=61-	=61-	=61-	=61-	=61-	=61-	=61-	=61-	=61-	=61-
2.F/	in	2.f\	in	2.a\	in	2.cc\	in	0r	.	0r	.	0r	.	0r	.
4E/	prae-	4g\	prae-	4g\	prae-	4cc\	prae-	.	.	.	.	.	.	.	.
2F/	-ſe-	2f\	-ſe-	2a\	-ſe-	2cc\	-ſe-	.	.	.	.	.	.	.	.
2G\	-pi-	2d\	-pi-	2g\	-pi-	2b-/	-pi-	.	.	.	.	.	.	.	.
*	*	*	*	*	*	*custos:a	*	*	*	*	*	*	*	*	*
!	!	!	!	!	!	!LO:LB:g=original	!	!	!	!	!	!	!	!	!
=62-	=62-	=62-	=62-	=62-	=62-	=62-	=62-	=62-	=62-	=62-	=62-	=62-	=62-	=62-	=62-
1D	-o	1d	-o	1f#X	-o	1a	-o	2r	.	4d\	An-	2r	.	2.dd\	An-
.	.	.	.	.	.	.	.	.	.	4e\	.	.	.	.	.
.	.	.	.	.	.	.	.	2.d\	An-	4f#X\	.	4d/	An-	.	.
.	.	.	.	.	.	.	.	.	.	4g\	.	4e/	.	8cc\	.
.	.	.	.	.	.	.	.	.	.	.	.	.	.	8b-y\	.
*	*	*custos:c	*	*	*	*	*	*	*	*	*	*	*	*	*
!	!	!LO:LB:g=original	!	!	!	!	!	!	!	!	!	!	!	!	!
1r	.	1r	.	1r	.	1r	.	.	.	2.a\	.	4f#X\	.	4a/	.
.	.	.	.	.	.	.	.	8c\	.	.	.	4g\	.	4b-/	.
.	.	.	.	.	.	.	.	8B-y\	.	.	.	.	.	.	.
.	.	.	.	.	.	.	.	4A\	.	.	.	1a\	.	1cc\	.
.	.	.	.	.	.	.	.	4B-\	.	8g\	.	.	.	.	.
.	.	.	.	.	.	.	.	.	.	8fny\	.	.	.	.	.
=63-	=63-	=63-	=63-	=63-	=63-	=63-	=63-	=63-	=63-	=63-	=63-	=63-	=63-	=63-	=63-
0r	.	0r	.	0r	.	0r	.	2c\	.	2e\	.	.	.	.	.
.	.	.	.	.	.	.	.	2A\	-ge-	2c/	-ge-	2fny\	-ge-	2cc\	-ge-
.	.	.	.	.	.	.	.	2G\	-los	2d\	-los	2g\	-los	2b-/	-los
.	.	.	.	.	.	.	.	2F/	cum	2f\	cu(m)	2a\	cum	2cc\	cu(m)
=64-	=64-	=64-	=64-	=64-	=64-	=64-	=64-	=64-	=64-	=64-	=64-	=64-	=64-	=64-	=64-
1r	.	1r	.	1r	.	1r	.	2.c\	car-	2.e\	car-	2.g\	car-	2.cc\	car-
.	.	.	.	.	.	.	.	4c\	-mi-	4e\	-mi-	4g\	-mi-	4cc\	-mi-
2r	.	2r	.	2r	.	2r	.	1F	-ne	1f	-ne	1a	-ne	1cc	-ne
1F\	et	1c\	et	1a\	et	1f/	et	.	.	.	.	.	.	.	.
=65-	=65-	=65-	=65-	=65-	=65-	=65-	=65-	=65-	=65-	=65-	=65-	=65-	=65-	=65-	=65-
.	.	.	.	.	.	.	.	00r	.	00r	.	00r	.	00r	.
2E/	paſ-	2c/	paſ-	2g\	paſ-	2g/	paſ-	.	.	.	.	.	.	.	.
1F	-to-	1c	-to-	1fny	-to-	1a	-to-	.	.	.	.	.	.	.	.
=66-	=66-	=66-	=66-	=66-	=66-	=66-	=66-	=66-	=66-	=66-	=66-	=66-	=66-	=66-	=66-
2D/	-res	2d\	-res	2f\	-res	2a/	-res	.	.	.	.	.	.	.	.
2D/	di-	2d\	di-	2f\	di-	2a/	di-	.	.	.	.	.	.	.	.
*lig	*	*	*	*lig	*	*	*	*	*	*	*	*	*	*	*
1G	-cen-	1d	-cen-	1g	-cen-	1b-	-cen-	.	.	.	.	.	.	.	.
=67-	=67-	=67-	=67-	=67-	=67-	=67-	=67-	=67-	=67-	=67-	=67-	=67-	=67-	=67-	=67-
*col	*	*	*	*col	*	*	*	*	*	*	*	*	*	*	*
2.C/	.	2.c/	-tes	2.e\	.	0.g	-tes	2r	.	2r	.	2r	.	2r	.
.	.	.	.	.	.	.	.	1c	et	1e	et	1g	et	1cc	et
*Xlig	*	*	*	*Xlig	*	*	*	*	*	*	*	*	*	*	*
4D/	.	8B-/	.	4f\	.	.	.	.	.	.	.	.	.	.	.
.	.	8A/	.	.	.	.	.	.	.	.	.	.	.	.	.
*Xcol	*	*	*	*Xcol	*	*	*	*	*	*	*	*	*	*	*
4E/	.	0G	.	1g	.	.	.	.	.	.	.	.	.	.	.
4C/	.	.	.	.	.	.	.	.	.	.	.	.	.	.	.
!	!	!	!	!	!	!	!	!LO:N:acc=#	!	!	!	!	!	!	!
2G\	.	.	.	.	.	.	.	2Bn\	paſ-	2d\	paſ-	2g\	paſ-	2dd\	paſ-
=68-	=68-	=68-	=68-	=68-	=68-	=68-	=68-	=68-	=68-	=68-	=68-	=68-	=68-	=68-	=68-
1C	-tes	.	.	1e	-tes	.	.	1c	-to-	2c/	-to-	1g	-to-	1ee	-to-
.	.	.	.	.	.	.	.	.	.	1e	-res	.	.	.	.
*	*	*	*	*	*	*	*	*	*	*	*	*custos:a	*	*custos:ee	*
!	!	!	!	!	!	!	!	!	!	!	!	!LO:LB:g=original	!	!LO:LB:g=original	!
0r	.	0r	.	0r	.	0r	.	2A\	-res	.	.	2a\	-res	2ee\	-res
.	.	.	.	.	.	.	.	2A\	di-	2a\	di-	1cc\	di-	2ee\	di-
=69-	=69-	=69-	=69-	=69-	=69-	=69-	=69-	=69-	=69-	=69-	=69-	=69-	=69-	=69-	=69-
.	.	.	.	.	.	.	.	1d	-cen-	1f	-cen-	.	.	1ff	-cen-
.	.	.	.	.	.	.	.	.	.	.	.	2b-\	-cen-	.	.
*	*	*	*	*	*	*	*	*	*	*custos:g	*	*	*	*	*
!	!	!	!	!	!	!	!	!	!	!LO:LB:g=original	!	!	!	!	!
2r	.	2r	.	2r	.	2r	.	1c	-tes	1g	-tes	1cc	-tes	1ee	-tes
2C/	No-	2c/	No-	2e/	No-	2g/	No-	.	.	.	.	.	.	.	.
=70-	=70-	=70-	=70-	=70-	=70-	=70-	=70-	=70-	=70-	=70-	=70-	=70-	=70-	=70-	=70-
2.C/	-e	1.c	-e	2.e/	-e	2.g/	-e	00r	.	00r	.	00r	.	00r	.
*	*ij	*	*	*	*ij	*	*ij	*	*	*	*	*	*	*	*
4D/	No-	.	.	4f\	No-	4f/	No-	.	.	.	.	.	.	.	.
2E/	-e	.	.	2g\	-e	2e/	-e	.	.	.	.	.	.	.	.
*	*	*	*ij	*	*Xij	*	*	*	*	*	*	*	*	*	*
2F/	No-	2c/	No-	2f\	No-	2a/	No-	.	.	.	.	.	.	.	.
=71-	=71-	=71-	=71-	=71-	=71-	=71-	=71-	=71-	=71-	=71-	=71-	=71-	=71-	=71-	=71-
2.D/	-e	1.d	-e	2.f\	-e	2.a/	-e	.	.	.	.	.	.	.	.
*	*Xij	*	*	*	*ij	*	*Xij	*	*	*	*	*	*	*	*
4E/	No-	.	.	4g\	No-	4g/	No-	.	.	.	.	.	.	.	.
*custos:F	*	*	*	*custos:f	*	*	*	*	*	*	*	*	*	*	*
!LO:LB:g=original	!	!	!	!LO:LB:g=original	!	!	!	!	!	!	!	!	!	!	!
2F/	-e	.	.	2f\	-e	2a/	-e	.	.	.	.	.	.	.	.
*	*ij	*	*	*	*Xij	*	*ij	*	*	*	*	*	*	*	*
!	!	!LO:N:acc=#	!	!	!	!	!	!	!	!	!	!	!	!	!
2G\	No-	2Bn/	No-	2d/	No-	2g/	No-	.	.	.	.	.	.	.	.
=72-	=72-	=72-	=72-	=72-	=72-	=72-	=72-	=72-	=72-	=72-	=72-	=72-	=72-	=72-	=72-
1C	-e	1c	-e	1e	-e	1g	-e	2r	.	2r	.	2r	.	2r	.
*	*Xij	*	*Xij	*	*	*	*Xij	*	*	*	*	*	*	*	*
.	.	.	.	.	.	.	.	2c\	No-	2e\	No-	2g\	No-	2cc\	No-
1r	.	1r	.	1r	.	1r	.	2.c\	-e	2.e\	-e	1.g	-e	2.cc\	-e
*	*	*	*	*	*	*	*	*	*ij	*	*ij	*	*	*	*ij
!	!	!	!	!	!	!	!	!LO:N:acc=#	!	!	!	!	!	!	!
.	.	.	.	.	.	.	.	4Bn\	No-	4d\	No-	.	.	4dd\	No-
=73-	=73-	=73-	=73-	=73-	=73-	=73-	=73-	=73-	=73-	=73-	=73-	=73-	=73-	=73-	=73-
0r	.	0r	.	0r	.	0r	.	2c\	-e	2c/	-e	.	.	2ee\	-e
*	*	*	*	*	*	*	*	*	*	*	*	*	*ij	*	*
.	.	.	.	.	.	.	.	2A\	No-	2c/	No-	2a\	No-	2ff\	No-
*	*	*	*	*	*	*	*	*custos:B	*	*	*	*	*	*	*
!	!	!	!	!	!	!	!	!LO:LB:g=original	!	!	!	!	!	!	!
.	.	.	.	.	.	.	.	2.B-y\	-e	2.d\	-e	2.f\	-e	2.dd\	-e
*	*	*	*	*	*	*	*	*	*	*	*Xij	*	*	*	*Xij
.	.	.	.	.	.	.	.	4c\	No-	4c/	No-	4e/	No-	4ee\	No-
=74-	=74-	=74-	=74-	=74-	=74-	=74-	=74-	=74-	=74-	=74-	=74-	=74-	=74-	=74-	=74-
1r	.	1r	.	1r	.	1r	.	2B-\	-e	2d\	-e	2d/	-e	2ff\	-e
*	*	*	*	*	*	*	*	*	*Xij	*	*ij	*	*Xij	*	*ij
.	.	.	.	.	.	.	.	2G\	No-	2e\	No-	2b-\	No-	2gg\	No-
2r	.	2r	.	2r	.	2r	.	1F	-e	1f	-e	1a	-e	1cc	-e
*	*	*	*	*	*	*	*	*	*	*	*Xij	*	*	*	*Xij
2F/	No-	2f\	No-	2a\	No-	2cc\	No-	.	.	.	.	.	.	.	.
=75-	=75-	=75-	=75-	=75-	=75-	=75-	=75-	=75-	=75-	=75-	=75-	=75-	=75-	=75-	=75-
2.F/	-e	1.f	-e	2.cc\	-e	2.a/	-e	00r	.	00r	.	00r	.	00r	.
*	*ij	*	*	*	*ij	*	*	*	*	*	*	*	*	*	*
4G\	No-	.	.	4b-\	No-	4b-/	No-	.	.	.	.	.	.	.	.
*	*	*	*	*	*	*custos:cc	*	*	*	*	*	*	*	*	*
!	!	!	!	!	!	!LO:LB:g=original	!	!	!	!	!	!	!	!	!
2A\	-e	.	.	2a\	-e	2cc\	-e	.	.	.	.	.	.	.	.
*	*	*	*ij	*	*	*	*ij	*	*	*	*	*	*	*	*
2B-\	No-	2d\	No-	2f\	No-	2b-/	No-	.	.	.	.	.	.	.	.
=76-	=76-	=76-	=76-	=76-	=76-	=76-	=76-	=76-	=76-	=76-	=76-	=76-	=76-	=76-	=76-
2.G\	-e	1.d	-e	1.g	-e	2.b-/	-e	.	.	.	.	.	.	.	.
*	*Xij	*	*Xij	*	*Xij	*	*	*	*	*	*	*	*	*	*
4A\	No-	.	.	.	.	4cc\	No-	.	.	.	.	.	.	.	.
2B-\	-e	.	.	.	.	2dd\	-e	.	.	.	.	.	.	.	.
*	*ij	*	*	*	*	*	*	*	*	*	*	*	*	*	*
2F/	No-	2f\	No-	2a\	No-	2cc\	No-	.	.	.	.	.	.	.	.
=77-	=77-	=77-	=77-	=77-	=77-	=77-	=77-	=77-	=77-	=77-	=77-	=77-	=77-	=77-	=77-
1c	-e	1e	-e	1g	-e	1cc	-e	2r	.	2r	.	2r	.	2r	.
*	*Xij	*	*	*	*	*	*Xij	*	*	*	*	*	*	*	*
.	.	.	.	.	.	.	.	1c	V-	1e	V-	1g	V-	1cc	V-
1r	.	1r	.	1r	.	1r	.	.	.	.	.	.	.	.	.
.	.	.	.	.	.	.	.	2A\	-bi	1f\	-bi	2a\	-bi	2cc\	-bi
=78-	=78-	=78-	=78-	=78-	=78-	=78-	=78-	=78-	=78-	=78-	=78-	=78-	=78-	=78-	=78-
00r	.	00r	.	00r	.	00r	.	1B-	paſ-	.	.	4d/	pa-	2.dd\	pa-
.	.	.	.	.	.	.	.	.	.	.	.	4e/	.	.	.
.	.	.	.	.	.	.	.	.	.	1d	pa-	4f\	.	.	.
.	.	.	.	.	.	.	.	.	.	.	.	4g\	.	4ee\	.
.	.	.	.	.	.	.	.	1A	-cas	.	.	1a	.	2ff\	.
.	.	.	.	.	.	.	.	.	.	2c#X/	.	.	.	2ee\	-ſcas
=79-	=79-	=79-	=79-	=79-	=79-	=79-	=79-	=79-	=79-	=79-	=79-	=79-	=79-	=79-	=79-
.	.	.	.	.	.	.	.	2r	.	1d	-ſcas	1a	-ſcas	2r	.
.	.	.	.	.	.	.	.	1d	V-	.	.	.	.	1ff	V-
.	.	.	.	.	.	.	.	.	.	2r	.	2r	.	.	.
!	!	!	!	!	!	!	!	!LO:N:acc=#	!	!	!	!	!	!	!
.	.	.	.	.	.	.	.	2Bn\	-bi	2G/	V-	2g\	V-	2dd\	-bi
=80-	=80-	=80-	=80-	=80-	=80-	=80-	=80-	=80-	=80-	=80-	=80-	=80-	=80-	=80-	=80-
0r	.	0r	.	0r	.	0r	.	4c\	cu-	2g\	-bi	2e/	-bi	0cc	cu-
.	.	.	.	.	.	.	.	4B-y\	.	.	.	.	.	.	.
.	.	.	.	.	.	.	.	4A\	.	2.a\	cu-	2.f\	cu-	.	.
.	.	.	.	.	.	.	.	4G\	.	.	.	.	.	.	.
.	.	.	.	.	.	.	.	1F	.	.	.	.	.	.	.
.	.	.	.	.	.	.	.	.	.	4g\	.	4g\	.	.	.
.	.	.	.	.	.	.	.	.	.	1f\	.	2a\	.	.	.
*	*	*custos:e	*	*	*	*	*	*	*	*	*	*	*	*	*
!	!	!LO:LB:g=original	!	!	!	!	!	!	!	!	!	!	!	!	!
=81-	=81-	=81-	=81-	=81-	=81-	=81-	=81-	=81-	=81-	=81-	=81-	=81-	=81-	=81-	=81-
2r	.	2r	.	2r	.	2r	.	1C	-bes	.	.	1g	-bes	1cc	-bes
1c	Dic	2e\	Dic	1g	Dic	1cc	Dic	.	.	2e\	-bes	.	.	.	.
.	.	2e\	ſi	.	.	.	.	1r	.	1r	.	1r	.	1r	.
2A\	ſi	1f\	plo-	1a\	ſi	2cc\	ſi	.	.	.	.	.	.	.	.
=82-	=82-	=82-	=82-	=82-	=82-	=82-	=82-	=82-	=82-	=82-	=82-	=82-	=82-	=82-	=82-
1B-	plo-	.	.	.	.	1dd	plo-	00r	.	00r	.	00r	.	00r	.
.	.	4e\	.	2g\	plo-	.	.	.	.	.	.	.	.	.	.
.	.	4d\	.	.	.	.	.	.	.	.	.	.	.	.	.
2A\	-ras	2e\	.	1a	-ras	2cc\	-ras	.	.	.	.	.	.	.	.
2d\	aut	2d\	-ras	.	.	2ff\	aut	.	.	.	.	.	.	.	.
=83-	=83-	=83-	=83-	=83-	=83-	=83-	=83-	=83-	=83-	=83-	=83-	=83-	=83-	=83-	=83-
!LO:N:acc=#	!	!	!	!	!	!	!	!	!	!	!	!	!	!	!
2Bn\	ſi-	2r	.	1g	aut	2dd\	ſi-	.	.	.	.	.	.	.	.
!	!	!	!	!	!	!LO:N:acc=#	!	!	!	!	!	!	!	!	!
2.c\	-ri-	1c	aut	.	.	2.een\	-ri-	.	.	.	.	.	.	.	.
.	.	.	.	1e	ſi-	.	.	.	.	.	.	.	.	.	.
4B-y\	.	.	.	.	.	4dd\	.	.	.	.	.	.	.	.	.
4A\	.	2c/	ſi-	.	.	4cc\	.	.	.	.	.	.	.	.	.
4G\	.	.	.	.	.	4b-/	.	.	.	.	.	.	.	.	.
=84-	=84-	=84-	=84-	=84-	=84-	=84-	=84-	=84-	=84-	=84-	=84-	=84-	=84-	=84-	=84-
1F	.	1c	-ri-	1f	-ri-	1a	.	0r	.	0r	.	0r	.	0r	.
1C	-des	1c	-des	1e	-des	1g	-des	.	.	.	.	.	.	.	.
*custos:BB	*	*	*	*	*	*	*	*	*	*	*	*custos:f	*	*	*
!LO:LB:g=original	!	!	!	!	!	!	!	!	!	!	!	!LO:LB:g=original	!	!	!
=85-	=85-	=85-	=85-	=85-	=85-	=85-	=85-	=85-	=85-	=85-	=85-	=85-	=85-	=85-	=85-
00r	.	00r	.	00r	.	00r	.	1.F	Te	1.cny	Te	1.f	Te	1.a	Te
.	.	.	.	.	.	.	.	2F/	ro-	2c/	ro-	2f\	ro-	2a/	ro-
=86-	=86-	=86-	=86-	=86-	=86-	=86-	=86-	=86-	=86-	=86-	=86-	=86-	=86-	=86-	=86-
*	*	*	*	*	*	*	*	*	*	*	*	*lig	*	*	*
.	.	.	.	.	.	.	.	1F	-ga-	1c	-ga-	1f	-ga-	1a	-ga-
*	*	*	*	*	*	*	*	*	*	*	*	*	*	*custos:g	*
!	!	!	!	!	!	!	!	!	!	!	!	!	!	!LO:LB:g=original	!
.	.	.	.	.	.	.	.	1C	-mus	1c	-mus	1e	.	2.g/	-mus
.	.	.	.	.	.	.	.	.	.	.	.	.	.	4a/	.
*	*	*	*	*	*	*	*	*	*	*custos:B	*	*Xlig	*	*	*
!	!	!	!	!	!	!	!	!	!	!LO:LB:g=original	!	!	!	!	!
=87-	=87-	=87-	=87-	=87-	=87-	=87-	=87-	=87-	=87-	=87-	=87-	=87-	=87-	=87-	=87-
00r	.	00r	.	00r	.	00r	.	2.G\	Rex	2.B-/	Rex	2d/	-mus	4b-/	.
.	.	.	.	.	.	.	.	.	.	.	.	.	.	4cc\	.
.	.	.	.	.	.	.	.	.	.	.	.	2g\	Rex	1dd	.
.	.	.	.	.	.	.	.	4A\	.	4c/	.	.	.	.	.
*	*	*	*	*	*	*	*	*	*	*	*	*lig	*	*	*
.	.	.	.	.	.	.	.	2B-\	.	4d\	.	1f	Chri-	.	.
.	.	.	.	.	.	.	.	.	.	4e\	.	.	.	.	.
.	.	.	.	.	.	.	.	2A\	.	1f\	.	.	.	2cc\	Rex
=88-	=88-	=88-	=88-	=88-	=88-	=88-	=88-	=88-	=88-	=88-	=88-	=88-	=88-	=88-	=88-
.	.	.	.	.	.	.	.	1G	Chri-	.	.	1g	.	1b-	Chri-
.	.	.	.	.	.	.	.	.	.	2e\	Chri-	.	.	.	.
*	*	*	*	*	*	*	*	*custos:F	*	*	*	*Xlig	*	*	*
!	!	!	!	!	!	!	!	!LO:LB:g=original	!	!	!	!	!	!	!
.	.	.	.	.	.	.	.	1F	-ſte	1f	-ſte	1c	-ſte	1a	-ſte
*	*	*	*	*custos:b	*	*	*	*	*	*	*	*	*	*	*
!	!	!	!	!LO:LB:g=original	!	!	!	!	!	!	!	!	!	!	!
=89-	=89-	=89-	=89-	=89-	=89-	=89-	=89-	=89-	=89-	=89-	=89-	=89-	=89-	=89-	=89-
1.BB-	Te	2r	.	1.b-	Te	1.ff	Te	1.B-	Te	1.f	Te	2r	.	1.dd	Te
.	.	2d\	Te	.	.	.	.	.	.	.	.	1d	Te	.	.
.	.	2B-y/	ro-	.	.	.	.	.	.	.	.	.	.	.	.
2BB-/	ro-	2.d\	-ga-	2b-\	ro-	2ff\	ro-	2B-\	ro-	2f\	ro-	2d/	ro-	2dd\	ro-
=90-	=90-	=90-	=90-	=90-	=90-	=90-	=90-	=90-	=90-	=90-	=90-	=90-	=90-	=90-	=90-
0BB-	-ga-	.	.	2.b-\	-ga-	4ff\	-ga-	0B-	-ga-	2.f\	-ga-	0b-	-ga-	4dd\	-ga-
.	.	4e\	.	.	.	4ee\	.	.	.	.	.	.	.	4cc\	.
.	.	1f	.	.	.	4dd\	.	.	.	.	.	.	.	4dd\	.
.	.	.	.	8a\	.	4cc\	.	.	.	4e\	.	.	.	4ee\	.
.	.	.	.	8g\	.	.	.	.	.	.	.	.	.	.	.
*	*	*	*	*	*	*custos:dd	*	*	*	*	*	*	*	*	*
!	!	!	!	!	!	!LO:LB:g=original	!	!	!	!	!	!	!	!	!
.	.	.	.	1f	.	2dd\	.	.	.	1d	.	.	.	1ff	.
.	.	2.F/	-mus	.	.	2b-/	.	.	.	.	.	.	.	.	.
=91-	=91-	=91-	=91-	=91-	=91-	=91-	=91-	=91-	=91-	=91-	=91-	=91-	=91-	=91-	=91-
0F	-mus	.	.	0f	-mus	0cc	.	0F	-mus	0c	-mus	0a	-mus	0ff	-mus
.	.	4G/	.	.	.	.	.	.	.	.	.	.	.	.	.
.	.	4A/	.	.	.	.	.	.	.	.	.	.	.	.	.
.	.	4B-/	.	.	.	.	.	.	.	.	.	.	.	.	.
.	.	1c	.	.	.	.	.	.	.	.	.	.	.	.	.
=92-	=92-	=92-	=92-	=92-	=92-	=92-	=92-	=92-	=92-	=92-	=92-	=92-	=92-	=92-	=92-
2.C/	Rex	1c	Rex	2r	.	1cc	-mus	2r	.	2.e\	Rex	0g	Rex	2.gg\	Rex
.	.	.	.	2g\	Rex	.	.	2.c\	Rex	.	.	.	.	.	.
4D/	.	.	.	.	.	.	.	.	.	4f\	.	.	.	4ff\	.
4E/	.	0G	Chri-	0g	Chri-	1.gg	Rex	.	.	1g	.	.	.	2ee\	.
!	!	!	!	!	!	!	!	!LO:N:acc=#	!	!	!	!	!	!	!
4F/	.	.	.	.	.	.	.	8Bn\	.	.	.	.	.	.	.
.	.	.	.	.	.	.	.	8A\	.	.	.	.	.	.	.
!	!	!	!	!	!	!	!	!LO:N:acc=#	!	!	!	!	!	!	!
*	*	*	*	*	*	*	*	*	*	*	*	*	*	*lig	*
2G\	.	.	.	.	.	.	.	2Bn\	.	.	.	.	.	1dd\	Chri-
=93-	=93-	=93-	=93-	=93-	=93-	=93-	=93-	=93-	=93-	=93-	=93-	=93-	=93-	=93-	=93-
1C	Chri-	.	.	.	.	.	.	1c	Chri-	2.e\	Chri-	0g	Chri-	.	.
.	.	.	.	.	.	2ee\	Chri-	.	.	.	.	.	.	1cc	.
.	.	.	.	.	.	.	.	.	.	8d\	.	.	.	.	.
.	.	.	.	.	.	.	.	.	.	8c\	.	.	.	.	.
1G	-ſte	1G	-ſte	1g	-ſte	1dd	-ſte	1G	-ſte	1d	.	.	.	.	.
*	*	*	*	*	*	*	*	*	*	*	*	*	*	*Xlig	*
!	!	!	!	!	!	!	!	!	!	!	!	!	!	!LO:N:acc=#	!
.	.	.	.	.	.	.	.	.	.	.	.	.	.	2bn/	.
=94-	=94-	=94-	=94-	=94-	=94-	=94-	=94-	=94-	=94-	=94-	=94-	=94-	=94-	=94-	=94-
00r	.	00r	.	00r	.	00r	.	2r	.	2c/	-ſte	1g	-ſte	1cc	-ſte
.	.	.	.	.	.	.	.	2C/	No-	2c/	No-	.	.	.	.
.	.	.	.	.	.	.	.	2.F/	-e	2.A/	-e	1r	.	1r	.
*	*	*	*	*	*	*	*	*	*ij	*	*ij	*	*	*	*
.	.	.	.	.	.	.	.	4D/	No-	4B-/	No-	.	.	.	.
=95-	=95-	=95-	=95-	=95-	=95-	=95-	=95-	=95-	=95-	=95-	=95-	=95-	=95-	=95-	=95-
.	.	.	.	.	.	.	.	2F/	-e	2A/	-e	2r	.	2r	.
.	.	.	.	.	.	.	.	2E/	No-	2G/	No-	2c/	No-	2cc\	No-
.	.	.	.	.	.	.	.	1F	-e	1F	-e	2c/	-e	2.a/	-e
*	*	*	*	*	*	*	*	*	*Xij	*	*Xij	*	*ij	*	*
.	.	.	.	.	.	.	.	.	.	.	.	2d/	No-	.	.
*	*	*	*	*	*	*	*	*	*	*	*	*	*	*	*ij
.	.	.	.	.	.	.	.	.	.	.	.	.	.	4b-/	No-
=96-	=96-	=96-	=96-	=96-	=96-	=96-	=96-	=96-	=96-	=96-	=96-	=96-	=96-	=96-	=96-
0r	.	0r	.	0r	.	0r	.	2r	.	2r	.	2f\	-e	2a/	-e
.	.	.	.	.	.	.	.	2C/	No-	2c/	No-	2e/	No-	2g/	No-
.	.	.	.	.	.	.	.	2.D/	-e	2.A/	-e	2d/	-e	2f/	-e
*	*	*	*	*	*	*	*	*	*	*	*	*	*	*	*Xij
.	.	.	.	.	.	.	.	.	.	.	.	1f\	No-	2a/	No-
*	*	*	*	*	*	*	*	*	*ij	*	*ij	*	*	*	*
.	.	.	.	.	.	.	.	4AA/	No-	4A/	No-	.	.	.	.
*	*	*	*	*	*	*	*	*	*	*	*	*	*	*custos:dd	*
!	!	!	!	!	!	!	!	!	!	!	!	!	!	!LO:LB:g=original	!
=97-	=97-	=97-	=97-	=97-	=97-	=97-	=97-	=97-	=97-	=97-	=97-	=97-	=97-	=97-	=97-
1r	.	1r	.	1r	.	1r	.	2BB-/	-e	2G/	-e	.	.	2dd\	-e
*	*	*	*	*	*	*	*	*	*	*	*	*	*	*	*ij
.	.	.	.	.	.	.	.	2C/	No-	2G/	No-	2e/	.	2cc\	No-
*	*	*	*	*	*	*	*	*	*	*custos:F	*	*	*	*	*
!	!	!	!	!	!	!	!	!	!	!LO:LB:g=original	!	!	!	!	!
2r	.	2r	.	2r	.	2r	.	1F	-e	1F	-e	1f	-e	1a	-e
*	*	*	*	*	*	*	*	*	*Xij	*	*Xij	*	*Xij	*	*Xij
2F/	Ci-	2c/	Ci-	2f\	Ci-	2a/	Ci-	.	.	.	.	.	.	.	.
*	*	*custos:d	*	*	*	*	*	*	*	*	*	*	*	*	*
!	!	!LO:LB:g=original	!	!	!	!	!	!	!	!	!	!	!	!	!
=98-	=98-	=98-	=98-	=98-	=98-	=98-	=98-	=98-	=98-	=98-	=98-	=98-	=98-	=98-	=98-
2D/	-bus	2d\	-bus	2f\	-bus	2a/	-bus	00r	.	00r	.	00r	.	00r	.
2G\	et	2d\	et	2g\	et	2b-/	et	.	.	.	.	.	.	.	.
2.F/	lac	0f	lac	1a	lac	2cc\	lac	.	.	.	.	.	.	.	.
*	*	*	*	*	*	*	*ij	*	*	*	*	*	*	*	*
.	.	.	.	.	.	2cc\	Ci-	.	.	.	.	.	.	.	.
4G\	.	.	.	.	.	.	.	.	.	.	.	.	.	.	.
=99-	=99-	=99-	=99-	=99-	=99-	=99-	=99-	=99-	=99-	=99-	=99-	=99-	=99-	=99-	=99-
2A\	.	.	.	1r	.	2cc\	-bus	.	.	.	.	.	.	.	.
2B-\	de	.	.	.	.	2dd\	et	.	.	.	.	.	.	.	.
2.c\	vir-	1r	.	2r	.	2.ee\	lac	.	.	.	.	.	.	.	.
*	*	*	*	*	*ij	*	*Xij	*	*	*	*	*	*	*	*
.	.	.	.	2g\	Ci-	.	.	.	.	.	.	.	.	.	.
8B-\	.	.	.	.	.	8dd\	.	.	.	.	.	.	.	.	.
8A\	.	.	.	.	.	8cc\	.	.	.	.	.	.	.	.	.
=100-	=100-	=100-	=100-	=100-	=100-	=100-	=100-	=100-	=100-	=100-	=100-	=100-	=100-	=100-	=100-
2B-\	.	0r	.	2g\	-bus	2dd\	.	00r	.	00r	.	00r	.	00r	.
2A\	-gi-	.	.	2a\	et	2cc\	de	.	.	.	.	.	.	.	.
1G	-ne	.	.	2b-\	lac	2.dd\	vir-	.	.	.	.	.	.	.	.
*	*	*	*	*	*Xij	*	*	*	*	*	*	*	*	*	*
.	.	.	.	1b-\	de	.	.	.	.	.	.	.	.	.	.
.	.	.	.	.	.	8cc\	.	.	.	.	.	.	.	.	.
.	.	.	.	.	.	8b-\	.	.	.	.	.	.	.	.	.
=101-	=101-	=101-	=101-	=101-	=101-	=101-	=101-	=101-	=101-	=101-	=101-	=101-	=101-	=101-	=101-
*	*	*	*ij	*	*	*	*	*	*	*	*	*	*	*	*
1r	.	1f	Ci-	.	.	2cc\	.	.	.	.	.	.	.	.	.
.	.	.	.	4a\	.	2.dd\	.	.	.	.	.	.	.	.	.
.	.	.	.	4g\	.	.	.	.	.	.	.	.	.	.	.
*custos:F	*	*	*	*	*	*	*	*	*	*	*	*	*	*	*
!LO:LB:g=original	!	!	!	!	!	!	!	!	!	!	!	!	!	!	!
1F	Ci-	2f\	-bus	2a\	.	.	.	.	.	.	.	.	.	.	.
.	.	.	.	.	.	4cc\	.	.	.	.	.	.	.	.	.
*	*	*	*	*custos:a	*	*	*	*	*	*	*	*	*	*	*
!	!	!	!	!LO:LB:g=original	!	!	!	!	!	!	!	!	!	!	!
.	.	2e\	et	1a\	vir-	1cc\	.	.	.	.	.	.	.	.	.
=102-	=102-	=102-	=102-	=102-	=102-	=102-	=102-	=102-	=102-	=102-	=102-	=102-	=102-	=102-	=102-
2F/	-bus	1d	lac	.	.	.	.	00r	.	00r	.	00r	.	00r	.
*	*	*	*Xij	*	*	*custos:b	*	*	*	*	*	*	*	*	*
!	!	!	!	!	!	!LO:LB:g=original	!	!	!	!	!	!	!	!	!
!	!	!	!	!	!	!LO:N:acc=#	!	!	!	!	!	!	!	!	!
2G\	et	.	.	4g\	.	2bn/	-gi-	.	.	.	.	.	.	.	.
.	.	.	.	4f\	.	.	.	.	.	.	.	.	.	.	.
*	*	*	*	*lig	*	*	*	*	*	*	*	*	*	*	*
1A	lac	1c	de	1e	.	2cc\	-ne	.	.	.	.	.	.	.	.
.	.	.	.	.	.	2a/	de	.	.	.	.	.	.	.	.
=103-	=103-	=103-	=103-	=103-	=103-	=103-	=103-	=103-	=103-	=103-	=103-	=103-	=103-	=103-	=103-
2r	.	2.d\	vir-	1.f	.	4b-y/	vir-	.	.	.	.	.	.	.	.
.	.	.	.	.	.	4a/	.	.	.	.	.	.	.	.	.
*	*ij	*	*	*	*	*	*	*	*	*	*	*	*	*	*
2D/	Ci-	.	.	.	.	1a	.	.	.	.	.	.	.	.	.
.	.	4c/	.	.	.	.	.	.	.	.	.	.	.	.	.
2D/	-bus	2.B-/	.	.	.	.	.	.	.	.	.	.	.	.	.
*	*	*	*	*Xlig	*	*	*	*	*	*	*	*	*	*	*
2E/	et	.	.	4e/	.	2g/	-gi-	.	.	.	.	.	.	.	.
.	.	4B-/	-gi-	4d/	.	.	.	.	.	.	.	.	.	.	.
=104-	=104-	=104-	=104-	=104-	=104-	=104-	=104-	=104-	=104-	=104-	=104-	=104-	=104-	=104-	=104-
1F	lac	2A/	-ne	2.c/	.	1a	-ne	00r	.	00r	.	00r	.	00r	.
*	*Xij	*	*	*	*	*	*	*	*	*	*	*	*	*	*
.	.	2f\	de	.	.	.	.	.	.	.	.	.	.	.	.
.	.	.	.	4c/	-gi-	.	.	.	.	.	.	.	.	.	.
1F	de	2.f\	vir-	2A/	-ne	2r	.	.	.	.	.	.	.	.	.
*	*	*	*	*	*	*	*ij	*	*	*	*	*	*	*	*
.	.	.	.	2a\	de	2cc\	de	.	.	.	.	.	.	.	.
.	.	4e\	.	.	.	.	.	.	.	.	.	.	.	.	.
=105-	=105-	=105-	=105-	=105-	=105-	=105-	=105-	=105-	=105-	=105-	=105-	=105-	=105-	=105-	=105-
2.B-\	vir-	4d\	.	2g\	vir-	2.dd\	vir-	.	.	.	.	.	.	.	.
.	.	4c/	.	.	.	.	.	.	.	.	.	.	.	.	.
.	.	1d	.	1f	.	.	.	.	.	.	.	.	.	.	.
4A\	.	.	.	.	.	4cc\	.	.	.	.	.	.	.	.	.
2G\	.	.	.	.	.	2b-/	.	.	.	.	.	.	.	.	.
2G\	-gi-	2B-/	-gi-	2e/	-gi-	2b-/	-gi-	.	.	.	.	.	.	.	.
*	*	*	*	*	*	*	*	*custos:F	*	*	*	*custos:f	*	*	*
!	!	!	!	!	!	!	!	!LO:LB:g=original	!	!	!	!LO:LB:g=original	!	!	!
=106-	=106-	=106-	=106-	=106-	=106-	=106-	=106-	=106-	=106-	=106-	=106-	=106-	=106-	=106-	=106-
1F	-ne	1c	-ne	1f	-ne	1a	-ne	2r	.	2r	.	2r	.	2r	.
*	*	*	*	*	*	*	*Xij	*	*	*	*	*	*	*	*
.	.	.	.	.	.	.	.	1F	Leƈ-	1c	Leƈ-	1f	Lec-	1a	Leƈ-
1r	.	1r	.	1r	.	1r	.	.	.	.	.	.	.	.	.
.	.	.	.	.	.	.	.	2D/	-tu(m)	2B-/	-tu(m)	2f\	-tu(m)	2f/	-tu(m)
=107-	=107-	=107-	=107-	=107-	=107-	=107-	=107-	=107-	=107-	=107-	=107-	=107-	=107-	=107-	=107-
00r	.	00r	.	00r	.	00r	.	1C	du-	1c	du-	2e/	du-	1a	du-
.	.	.	.	.	.	.	.	.	.	.	.	1f	-rum	.	.
.	.	.	.	.	.	.	.	2BB-/	-ru(m)	2d\	-ru(m)	.	.	1g	-ru(m)
.	.	.	.	.	.	.	.	2C/	prae-	4c/	.	2e/	prae-	.	.
.	.	.	.	.	.	.	.	.	.	4B-/	.	.	.	.	.
=108-	=108-	=108-	=108-	=108-	=108-	=108-	=108-	=108-	=108-	=108-	=108-	=108-	=108-	=108-	=108-
.	.	.	.	.	.	.	.	2.D/	-ſe-	2A/	.	1.f	-ſe-	2f/	prae-
.	.	.	.	.	.	.	.	.	.	2d\	prae-	.	.	1b-	-ſe-
.	.	.	.	.	.	.	.	4E/	.	.	.	.	.	.	.
.	.	.	.	.	.	.	.	2F/	.	2.c/	-ſe-	.	.	.	.
.	.	.	.	.	.	.	.	2F/	-pi-	.	.	2f\	-pi-	2a/	-pi-
.	.	.	.	.	.	.	.	.	.	4c/	-pi-	.	.	.	.
=109-	=109-	=109-	=109-	=109-	=109-	=109-	=109-	=109-	=109-	=109-	=109-	=109-	=109-	=109-	=109-
2r	.	2r	.	2r	.	2r	.	0C	-um	0c	-um	0e	-um	0g	-um
1c	Car-	1e	Car-	1g	Car-	1cc	Car-	.	.	.	.	.	.	.	.
2c\	-mi-	2e\	-mi-	2g\	-mi-	2cc\	-mi-	.	.	.	.	.	.	.	.
=110-	=110-	=110-	=110-	=110-	=110-	=110-	=110-	=110-	=110-	=110-	=110-	=110-	=110-	=110-	=110-
1G	-na	1d	-na	1g	-na	2.b-/	-na	00r	.	00r	.	00r	.	00r	.
.	.	.	.	.	.	8a/	.	.	.	.	.	.	.	.	.
.	.	.	.	.	.	8g/	.	.	.	.	.	.	.	.	.
1d	ſunt	1f	ſunt	0r	.	2a/	.	.	.	.	.	.	.	.	.
.	.	.	.	.	.	2b-/	ſunt	.	.	.	.	.	.	.	.
=111-	=111-	=111-	=111-	=111-	=111-	=111-	=111-	=111-	=111-	=111-	=111-	=111-	=111-	=111-	=111-
2c\	la-	2e\	la-	.	.	2a/	la-	.	.	.	.	.	.	.	.
2B-\	-chry-	2d\	-chry-	.	.	2g/	-chry-	.	.	.	.	.	.	.	.
*	*	*custos:c	*	*	*	*	*	*	*	*	*	*	*	*	*
!	!	!LO:LB:g=original	!	!	!	!	!	!	!	!	!	!	!	!	!
1A	-mę	1c#X	-mę	2.e/	Car-	1a	-mę	.	.	.	.	.	.	.	.
.	.	.	.	4e/	-mi-	.	.	.	.	.	.	.	.	.	.
=112-	=112-	=112-	=112-	=112-	=112-	=112-	=112-	=112-	=112-	=112-	=112-	=112-	=112-	=112-	=112-
*	*	*	*	*	*	*	*ij	*	*	*	*	*	*	*	*
2r	.	0r	.	2d/	-na	2.a/	Car-	00r	.	00r	.	00r	.	00r	.
2F/	No-	.	.	2f\	ſunt	.	.	.	.	.	.	.	.	.	.
.	.	.	.	.	.	4a/	-mi-	.	.	.	.	.	.	.	.
2c\	-e	.	.	2e/	la-	2g/	-na	.	.	.	.	.	.	.	.
*	*ij	*	*	*	*	*	*	*	*	*	*	*	*	*	*
!LO:SIC:v:t=custos A	!	!	!	!	!	!	!	!	!	!	!	!	!	!	!
2G\	No-	.	.	1d/	-chry-	2b-/	ſunt	.	.	.	.	.	.	.	.
*custos:A	*	*	*	*	*	*custos:a	*	*	*	*	*	*	*	*	*
!LO:LB:g=original	!	!	!	!	!	!LO:LB:g=original	!	!	!	!	!	!	!	!	!
=113-	=113-	=113-	=113-	=113-	=113-	=113-	=113-	=113-	=113-	=113-	=113-	=113-	=113-	=113-	=113-
*	*	*	*ij	*	*	*	*	*	*	*	*	*	*	*	*
1A	-e	2.e\	Car-	.	.	2.a/	la-	.	.	.	.	.	.	.	.
*	*Xij	*	*	*	*	*	*	*	*	*	*	*	*	*	*
.	.	.	.	2c#X/	.	.	.	.	.	.	.	.	.	.	.
.	.	4e\	-mi-	.	.	4g/	-chry-	.	.	.	.	.	.	.	.
*	*	*	*	*custos:d	*	*	*	*	*	*	*	*	*	*	*
!	!	!	!	!LO:LB:g=original	!	!	!	!	!	!	!	!	!	!	!
0r	.	2d\	-na	2d/	-mę	1f	-mę	.	.	.	.	.	.	.	.
*	*	*	*	*	*	*	*Xij	*	*	*	*	*	*	*	*
.	.	2f\	ſunt	2a\	No-	.	.	.	.	.	.	.	.	.	.
=114-	=114-	=114-	=114-	=114-	=114-	=114-	=114-	=114-	=114-	=114-	=114-	=114-	=114-	=114-	=114-
.	.	2e\	la-	2g\	-e	2r	.	0r	.	0r	.	0r	.	0r	.
*	*	*	*	*	*ij	*	*	*	*	*	*	*	*	*	*
.	.	2d\	-chry-	2f\	No-	2ff\	No-	.	.	.	.	.	.	.	.
2r	.	1.cny	-mę	2g\	-e	2ff\	-e	.	.	.	.	.	.	.	.
*	*	*	*Xij	*	*Xij	*	*ij	*	*	*	*	*	*	*	*
2C/	No-	.	.	2g\	No-	2ee\	No-	.	.	.	.	.	.	.	.
=115-	=115-	=115-	=115-	=115-	=115-	=115-	=115-	=115-	=115-	=115-	=115-	=115-	=115-	=115-	=115-
2.F/	-e	.	.	2.a\	-e	2.ff\	.	1r	.	1r	.	1r	.	1r	.
.	.	2f\	No-	.	.	.	.	.	.	.	.	.	.	.	.
*	*ij	*	*	*	*ij	*	*	*	*	*	*	*	*	*	*
4G\	No-	.	.	4g\	No-	8ee\	.	.	.	.	.	.	.	.	.
.	.	.	.	.	.	8dd\	.	.	.	.	.	.	.	.	.
2A\	-e	2f\	-e	2f\	-e	2cc\	-e	2r	.	2r	.	2r	.	2r	.
*	*	*	*ij	*	*	*	*Xij	*	*	*	*	*	*	*	*
2G\	No-	2e\	No-	2g\	No-	2gg\	No-	2C/	No-	2c/	No-	2e/	No-	2cc\	No-
=116-	=116-	=116-	=116-	=116-	=116-	=116-	=116-	=116-	=116-	=116-	=116-	=116-	=116-	=116-	=116-
1F	-e	1f	-e	1a	-e	1cc	-e	2.F/	-e	1.c	-e	2.a\	-e	2.cc\	-e
*	*Xij	*	*Xij	*	*Xij	*	*	*	*ij	*	*ij	*	*ij	*	*ij
.	.	.	.	.	.	.	.	4G\	No-	.	.	4g\	No-	4b-/	No-
2r	.	2r	.	2r	.	2r	.	2A\	-e	.	.	2f\	-e	2a/	-e
*	*	*	*	*	*	*	*ij	*	*	*	*	*	*	*	*
2C/	No-	2c/	No-	2g\	No-	2cc\	No-	2c\	No-	2c/	No-	2e/	No-	2g/	No-
=117-	=117-	=117-	=117-	=117-	=117-	=117-	=117-	=117-	=117-	=117-	=117-	=117-	=117-	=117-	=117-
2.F/	-e	2c/	-e	2f\	-e	1.cc	-e	1F	-e	1c	-e	1f	-e	1a	-e
*	*ij	*	*ij	*	*ij	*	*	*	*Xij	*	*Xij	*	*Xij	*	*Xij
.	.	2f\	No-	2a\	No-	.	.	.	.	.	.	.	.	.	.
4G\	No-	.	.	.	.	.	.	.	.	.	.	.	.	.	.
2A\	-e	2f\	-e	2a\	-e	.	.	2r	.	2r	.	2r	.	2r	.
*	*Xij	*	*	*	*Xij	*	*	*	*	*	*	*	*	*	*
2c\	No-	2e\	No-	2g\	No-	2cc\	No-	2C/	No-	2c/	No-	2g\	No-	2cc\	No-
=118-	=118-	=118-	=118-	=118-	=118-	=118-	=118-	=118-	=118-	=118-	=118-	=118-	=118-	=118-	=118-
1F	-e	1f	-e	1a	-e	1cc	-e	2.F/	-e	2c/	-e	2f\	-e	1.cc	-e
*	*	*	*Xij	*	*	*	*Xij	*	*ij	*	*ij	*	*ij	*	*
.	.	.	.	.	.	.	.	.	.	2f\	No-	2a\	No-	.	.
.	.	.	.	.	.	.	.	4G\	No-	.	.	.	.	.	.
2r	.	2r	.	2r	.	2r	.	2A\	-e	2f\	-e	2a\	-e	.	.
*	*	*	*	*	*	*	*	*	*Xij	*	*	*	*	*	*ij
2C/	No-	2c/	No-	2e/	No-	2cc\	No-	2c\	No-	2e\	No-	2g\	No-	2cc\	No-
=119-	=119-	=119-	=119-	=119-	=119-	=119-	=119-	=119-	=119-	=119-	=119-	=119-	=119-	=119-	=119-
2.F/	-e	2c/	-e	2.a\	-e	2.cc\	-e	1F	-e	1f	-e	1a	-e	1cc	-e
*	*ij	*	*ij	*	*ij	*	*ij	*	*	*	*Xij	*	*Xij	*	*Xij
.	.	2f\	No-	.	.	.	.	.	.	.	.	.	.	.	.
4G\	No-	.	.	4b-\	No-	4b-/	No-	.	.	.	.	.	.	.	.
2A\	-e	2f\	-e	1cc	-e	2a/	-e	2r	.	2r	.	2r	.	2r	.
*	*Xij	*	*Xij	*	*Xij	*	*Xij	*	*	*	*	*	*	*	*
2c\	No-	2e\	No-	.	.	2g/	No-	2C/	No-	2c/	No-	2e/	No-	2cc\	No-
=120-	=120-	=120-	=120-	=120-	=120-	=120-	=120-	=120-	=120-	=120-	=120-	=120-	=120-	=120-	=120-
1.F	-e	0f	-e	1r	.	1f	-e	1.F	-e	1.A	-e	1c	-e	1cc	-e
*	*ij	*	*	*	*	*	*	*	*	*	*ij	*	*ij	*	*
.	.	.	.	1a	No-	2r	.	.	.	.	.	1cc	No-	1a	No-
2F/	No-	.	.	.	.	2ff\	No-	2F/	No-	2A/	No-	.	.	.	.
=121-	=121-	=121-	=121-	=121-	=121-	=121-	=121-	=121-	=121-	=121-	=121-	=121-	=121-	=121-	=121-
1B-	-e	2r	.	1.b-	-e	4ff\	-e	1.BB-	-e	1.F	-e	1b-	-e	1.dd	-e
.	.	.	.	.	.	4ee\	.	.	.	.	.	.	.	.	.
.	.	2f\	No-	.	.	4dd\	.	.	.	.	.	.	.	.	.
.	.	.	.	.	.	4cc\	.	.	.	.	.	.	.	.	.
1B-	No-	2f\	-e	.	.	2dd\	.	.	.	.	.	1f	No-	.	.
*	*	*	*	*	*ij	*	*	*	*ij	*	*	*	*	*	*ij
.	.	2B-/	No-	2b-\	No-	2ff\	No-	2BB-/	No-	2F/	No-	.	.	2dd\	No-
=122-	=122-	=122-	=122-	=122-	=122-	=122-	=122-	=122-	=122-	=122-	=122-	=122-	=122-	=122-	=122-
0Fl	-e	0cl	-e.	0al	-e	0ffl	-e.	0Fl	-e	0Al	-e	0fl	-e	0ccl	-e
*	*Xij	*	*	*	*Xij	*	*	*	*Xij	*	*Xij	*	*Xij	*	*Xij
==	==	==	==	==	==	==	==	==	==	==	==	==	==	==	==
*-	*-	*-	*-	*-	*-	*-	*-	*-	*-	*-	*-	*-	*-	*-	*-
!!!system-decoration: [(g1)][(g2)]
!!!RDF**kern: l = terminal long
!!!ENC: Mateusz Solarz
!!!END: 2022-07-14
!!!ENC: Andrzej Kubiczek
!!!END: 2022-08-11
!!!YEC: Copyright 2022 Narodowy Instytut Fryderyka Chopina (https://polishscores.org)
!!!YEM: License CC-BY-4.0 (https://creativecommons.org/licenses/by/4.0)
